; generated by Slic3r 1.1.7 on 2015-06-03 at 15:01:02

; perimeters extrusion width = 0.40mm
; infill extrusion width = 0.67mm
; solid infill extrusion width = 0.67mm
; top infill extrusion width = 0.67mm

G21 ; set units to millimeters
M107
M190 S65 ; wait for bed temperature to be reached
M104 S225 ; set temperature
G28 ; home all axes
G1 Z5 F5000 ; lift nozzle

M109 S225 ; wait for temperature to be reached
G90 ; use absolute coordinates
G92 E0
M82 ; use absolute distances for extrusion
G1 Z0.300 F7800.000
G1 F2400.000 E-2.00000
G92 E0
G1 X83.183 Y68.543 F7800.000
G1 E2.00000 F2400.000
G1 X86.581 Y65.145 E2.23972 F1200.000
G1 X93.576 Y65.145 E2.58869
G1 X96.973 Y68.543 E2.82840
G1 X96.973 Y74.268 E3.11405 F1200.000
G1 X97.208 Y74.503 E3.13058
G1 X102.792 Y74.503 E3.40921
G1 X103.027 Y74.268 E3.42574
G1 X103.027 Y68.543 E3.71139
G1 X106.424 Y65.145 E3.95110
G1 X113.419 Y65.145 E4.30007
G1 X116.817 Y68.543 E4.53979
G1 X116.817 Y88.810 E5.55094
G1 X114.124 Y91.503 E5.74094
G1 X114.065 Y91.621 E5.74748
G1 X113.784 Y93.676 E5.85099
G1 X110.507 Y96.536 E6.06799
G1 X104.552 Y96.536 E6.36509
G1 X101.309 Y93.794 E6.57696
G1 X101.074 Y92.397 E6.64765
G1 X100.850 Y92.208 E6.66226
G1 X99.150 Y92.208 E6.74708
G1 X98.926 Y92.397 E6.76169
G1 X98.691 Y93.794 E6.83238
G1 X95.448 Y96.536 E7.04426
G1 X89.493 Y96.536 E7.34136
G1 X86.215 Y93.676 E7.55838
G1 X85.935 Y91.621 E7.66187
G1 X85.876 Y91.503 E7.66841
G1 X83.183 Y88.810 E7.85842
G1 X83.183 Y68.603 E8.86657
G1 X83.583 Y68.709 F7800.000
G1 X86.747 Y65.545 E9.08975 F1200.000
G1 X93.410 Y65.545 E9.42219
G1 X96.573 Y68.709 E9.64538 F1200.000
G1 X96.573 Y74.668 E9.94271
G1 X96.808 Y74.903 E9.95924
G1 X103.192 Y74.903 E10.27778
G1 X103.427 Y74.668 E10.29432
G1 X103.427 Y68.709 E10.59165
G1 X106.590 Y65.545 E10.81484
G1 X113.253 Y65.545 E11.14727
G1 X116.417 Y68.709 E11.37046
G1 X116.417 Y88.645 E12.36507
G1 X113.746 Y91.316 E12.55353
G1 X113.687 Y91.433 E12.56007
G1 X113.408 Y93.474 E12.66282
G1 X110.357 Y96.136 E12.86486
G1 X104.699 Y96.136 E13.14716
G1 X101.679 Y93.583 E13.34442
G1 X101.412 Y91.997 E13.42468
G1 X101.188 Y91.808 E13.43929
G1 X98.812 Y91.808 E13.55786
G1 X98.588 Y91.997 E13.57247
G1 X98.321 Y93.583 E13.65272
G1 X95.301 Y96.136 E13.84999
G1 X89.643 Y96.136 E14.13230
G1 X86.591 Y93.473 E14.33436
G1 X86.313 Y91.433 E14.43708
G1 X86.254 Y91.316 E14.44362
G1 X83.583 Y88.645 E14.63208
G1 X83.583 Y68.769 E15.62370
G1 X83.983 Y68.874 F7800.000
G1 X86.912 Y65.945 E15.83036 F1200.000
G1 X93.244 Y65.945 E16.14626
G1 X96.173 Y68.874 E16.35291
G1 X96.173 Y75.068 E16.66194 F1200.000
G1 X96.408 Y75.303 E16.67847
G1 X103.592 Y75.303 E17.03692
G1 X103.827 Y75.068 E17.05346
G1 X103.827 Y68.874 E17.36248
G1 X106.756 Y65.945 E17.56913
G1 X113.088 Y65.945 E17.88504
G1 X116.017 Y68.874 E18.09169
G1 X116.017 Y88.479 E19.06977
G1 X113.367 Y91.128 E19.25669
G1 X113.309 Y91.245 E19.26323
G1 X113.032 Y93.271 E19.36521
G1 X110.207 Y95.736 E19.55228
G1 X104.845 Y95.736 E19.81979
G1 X102.049 Y93.372 E20.00244
G1 X101.750 Y91.597 E20.09227
G1 X101.526 Y91.408 E20.10688
G1 X98.474 Y91.408 E20.25920
G1 X98.250 Y91.597 E20.27381
G1 X97.951 Y93.372 E20.36363
G1 X95.155 Y95.736 E20.54628
G1 X89.793 Y95.736 E20.81381
G1 X86.967 Y93.270 E21.00089
G1 X86.691 Y91.246 E21.10286
G1 X86.633 Y91.128 E21.10940
G1 X83.983 Y88.479 E21.29631
G1 X83.983 Y68.934 E22.27140
G1 X84.383 Y69.040 F7800.000
G1 X87.078 Y66.345 E22.46152 F1200.000
G1 X93.079 Y66.345 E22.76089
G1 X95.773 Y69.040 E22.95101 F1200.000
G1 X95.773 Y75.468 E23.27173
G1 X96.008 Y75.703 E23.28826
G1 X103.992 Y75.703 E23.68663
G1 X104.227 Y75.468 E23.70316
G1 X104.227 Y69.040 E24.02387
G1 X106.921 Y66.345 E24.21399
G1 X112.922 Y66.345 E24.51337
G1 X115.617 Y69.040 E24.70349
G1 X115.617 Y88.313 E25.66504
G1 X112.985 Y90.945 E25.85071
G1 X112.925 Y91.074 E25.85780
G1 X112.656 Y93.068 E25.95820
G1 X110.057 Y95.336 E26.13030
G1 X104.992 Y95.336 E26.38303
G1 X102.420 Y93.162 E26.55106
G1 X102.088 Y91.197 E26.65046
G1 X101.865 Y91.008 E26.66507
G1 X98.135 Y91.008 E26.85113
G1 X97.912 Y91.197 E26.86574
G1 X97.581 Y93.161 E26.96513
G1 X95.009 Y95.336 E27.13317
G1 X89.943 Y95.336 E27.38591
G1 X87.343 Y93.068 E27.55803
G1 X87.075 Y91.074 E27.65840
G1 X87.015 Y90.945 E27.66549
G1 X84.383 Y88.313 E27.85117
G1 X84.383 Y69.100 E28.80973
G1 X84.783 Y69.206 F7800.000
G1 X87.244 Y66.745 E28.98332 F1200.000
G1 X92.913 Y66.745 E29.26616
G1 X95.373 Y69.206 E29.43975
G1 X95.373 Y75.868 E29.77215 F1200.000
G1 X95.608 Y76.103 E29.78868
G1 X104.392 Y76.103 E30.22696
G1 X104.627 Y75.868 E30.24349
G1 X104.627 Y69.206 E30.57590
G1 X107.087 Y66.745 E30.74949
G1 X112.756 Y66.745 E31.03233
G1 X115.217 Y69.206 E31.20591
G1 X115.217 Y88.148 E32.15093
G1 X112.598 Y90.766 E32.33566
G1 X112.539 Y90.895 E32.34275
G1 X112.280 Y92.865 E32.44191
G1 X109.907 Y94.936 E32.59905
G1 X105.138 Y94.936 E32.83698
G1 X102.790 Y92.951 E32.99041
G1 X102.493 Y91.189 E33.07953
G1 X102.453 Y90.813 E33.09837
G1 X102.225 Y90.608 E33.11370
G1 X97.775 Y90.608 E33.33572
G1 X97.547 Y90.813 E33.35105
G1 X97.507 Y91.189 E33.36988
G1 X97.210 Y92.950 E33.45901
G1 X94.862 Y94.936 E33.61244
G1 X90.093 Y94.936 E33.85038
G1 X87.719 Y92.865 E34.00754
G1 X87.461 Y90.895 E34.10667
G1 X87.402 Y90.766 E34.11376
G1 X84.783 Y88.148 E34.29849
G1 X84.783 Y69.266 E35.24052
G1 X85.183 Y69.371 F7800.000
G1 X87.409 Y67.145 E35.39757 F1200.000
G1 X92.747 Y67.145 E35.66388
G1 X94.973 Y69.371 E35.82094 F1200.000
G1 X94.973 Y76.268 E36.16504
G1 X95.208 Y76.503 E36.18157
G1 X104.792 Y76.503 E36.65976
G1 X105.027 Y76.268 E36.67629
G1 X105.027 Y69.371 E37.02038
G1 X107.253 Y67.145 E37.17744
G1 X112.591 Y67.145 E37.44375
G1 X114.817 Y69.371 E37.60080
G1 X114.817 Y87.982 E38.52929
G1 X112.591 Y90.208 E38.68635
G1 X112.386 Y90.208 E38.69657
G1 X112.153 Y90.434 E38.71277
G1 X112.124 Y91.055 E38.74377
G1 X111.904 Y92.663 E38.82472
G1 X109.757 Y94.536 E38.96690
G1 X105.284 Y94.536 E39.19005
G1 X103.160 Y92.740 E39.32886
G1 X102.889 Y91.135 E39.41005
G1 X102.845 Y90.431 E39.44526
G1 X102.613 Y90.208 E39.46131
G1 X97.387 Y90.208 E39.72202
G1 X97.155 Y90.431 E39.73807
G1 X97.111 Y91.135 E39.77328
G1 X96.840 Y92.740 E39.85447
G1 X94.716 Y94.536 E39.99329
G1 X90.243 Y94.536 E40.21644
G1 X88.095 Y92.662 E40.35863
G1 X87.876 Y91.055 E40.43958
G1 X87.847 Y90.434 E40.47057
G1 X87.614 Y90.208 E40.48677
G1 X87.409 Y90.208 E40.49699
G1 X85.183 Y87.982 E40.65405
G1 X85.183 Y69.431 E41.57954
G1 X85.583 Y69.537 F7800.000
G1 X87.575 Y67.545 E41.72006 F1200.000
G1 X92.582 Y67.545 E41.96984
G1 X94.573 Y69.537 E42.11036
G1 X94.573 Y76.668 E42.46615 F1200.000
G1 X94.808 Y76.903 E42.48268
G1 X105.192 Y76.903 E43.00078
G1 X105.427 Y76.668 E43.01732
G1 X105.427 Y69.537 E43.37310
G1 X107.418 Y67.545 E43.51362
G1 X112.425 Y67.545 E43.76340
G1 X114.417 Y69.537 E43.90392
G1 X114.417 Y87.816 E44.81588
G1 X112.425 Y89.808 E44.95640
G1 X111.986 Y89.808 E44.97830
G1 X111.752 Y90.042 E44.99483
G1 X111.726 Y91.011 E45.04320
G1 X111.528 Y92.460 E45.11613
G1 X109.607 Y94.136 E45.24334
G1 X105.431 Y94.136 E45.45170
G1 X103.530 Y92.529 E45.57590
G1 X103.286 Y91.081 E45.64916
G1 X103.249 Y90.520 E45.67719
G1 X103.248 Y90.042 E45.70104
G1 X103.013 Y89.808 E45.71757
G1 X96.987 Y89.808 E46.01823
G1 X96.752 Y90.042 E46.03477
G1 X96.751 Y90.520 E46.05862
G1 X96.714 Y91.081 E46.08664
G1 X96.470 Y92.529 E46.15990
G1 X94.569 Y94.136 E46.28410
G1 X90.393 Y94.136 E46.49247
G1 X88.471 Y92.460 E46.61969
G1 X88.274 Y91.011 E46.69262
G1 X88.248 Y90.042 E46.74098
G1 X88.014 Y89.808 E46.75751
G1 X87.575 Y89.808 E46.77940
G1 X85.583 Y87.816 E46.91993
G1 X85.583 Y69.597 E47.82889
G1 X85.983 Y69.703 F7800.000
G1 X87.741 Y67.945 E47.95288 F1200.000
G1 X92.416 Y67.945 E48.18613
G1 X94.173 Y69.703 E48.31012 F1200.000
G1 X94.173 Y77.068 E48.67759
G1 X94.408 Y77.303 E48.69412
G1 X105.592 Y77.303 E49.25214
G1 X105.827 Y77.068 E49.26867
G1 X105.827 Y69.703 E49.63614
G1 X107.584 Y67.945 E49.76014
G1 X112.259 Y67.945 E49.99338
G1 X114.017 Y69.703 E50.11737
G1 X114.017 Y87.650 E51.01279
G1 X112.259 Y89.408 E51.13679
G1 X111.586 Y89.408 E51.17037
G1 X111.352 Y89.642 E51.18690
G1 X111.342 Y90.808 E51.24504
G1 X111.152 Y92.257 E51.31797
G1 X109.457 Y93.736 E51.43021
G1 X105.577 Y93.736 E51.62378
G1 X103.900 Y92.318 E51.73337
G1 X103.663 Y90.839 E51.80808
G1 X103.648 Y89.642 E51.86782
G1 X103.413 Y89.408 E51.88435
G1 X96.587 Y89.408 E52.22492
G1 X96.352 Y89.642 E52.24146
G1 X96.337 Y90.839 E52.30119
G1 X96.100 Y92.318 E52.37589
G1 X94.423 Y93.736 E52.48549
G1 X90.543 Y93.736 E52.67906
G1 X88.848 Y92.257 E52.79132
G1 X88.658 Y90.808 E52.86423
G1 X88.648 Y89.642 E52.92238
G1 X88.414 Y89.408 E52.93891
G1 X87.741 Y89.408 E52.97249
G1 X85.983 Y87.650 E53.09648
G1 X85.983 Y69.763 E53.98891
G1 X86.383 Y69.868 F7800.000
G1 X87.906 Y68.345 E54.09637 F1200.000
G1 X92.250 Y68.345 E54.31308
G1 X93.773 Y69.868 E54.42054
G1 X93.773 Y77.468 E54.79971 F1200.000
G1 X94.008 Y77.703 E54.81624
G1 X105.992 Y77.703 E55.41416
G1 X106.227 Y77.468 E55.43070
G1 X106.227 Y69.868 E55.80986
G1 X107.750 Y68.345 E55.91732
G1 X112.094 Y68.345 E56.13403
G1 X113.617 Y69.868 E56.24149
G1 X113.617 Y87.485 E57.12038
G1 X112.094 Y89.008 E57.22784
G1 X111.186 Y89.008 E57.27311
G1 X110.952 Y89.242 E57.28965
G1 X110.942 Y90.785 E57.36664
G1 X110.776 Y92.054 E57.43048
G1 X109.307 Y93.336 E57.52776
G1 X105.724 Y93.336 E57.70654
G1 X104.270 Y92.107 E57.80151
G1 X104.062 Y90.810 E57.86704
G1 X104.048 Y89.242 E57.94528
G1 X103.813 Y89.008 E57.96181
G1 X96.187 Y89.008 E58.34230
G1 X95.952 Y89.242 E58.35883
G1 X95.938 Y90.810 E58.43707
G1 X95.730 Y92.107 E58.50259
G1 X94.276 Y93.336 E58.59757
G1 X90.693 Y93.336 E58.77635
G1 X89.224 Y92.054 E58.87364
G1 X89.058 Y90.785 E58.93747
G1 X89.048 Y89.242 E59.01446
G1 X88.814 Y89.008 E59.03099
G1 X87.906 Y89.008 E59.07627
G1 X86.383 Y87.485 E59.18373
G1 X86.383 Y69.928 E60.05962
G1 X86.783 Y70.034 F7800.000
G1 X88.072 Y68.745 E60.15055 F1200.000
G1 X92.085 Y68.745 E60.35073
G1 X93.373 Y70.034 E60.44166 F1200.000
G1 X93.373 Y77.868 E60.83251
G1 X93.608 Y78.103 E60.84905
G1 X106.392 Y78.103 E61.48688
G1 X106.627 Y77.868 E61.50342
G1 X106.627 Y70.034 E61.89427
G1 X107.915 Y68.745 E61.98520
G1 X111.928 Y68.745 E62.18538
G1 X113.217 Y70.034 E62.27631
G1 X113.217 Y87.319 E63.13866
G1 X111.928 Y88.608 E63.22959
G1 X110.786 Y88.608 E63.28655
G1 X110.552 Y88.842 E63.30308
G1 X110.543 Y90.763 E63.39893
G1 X110.400 Y91.851 E63.45368
G1 X109.157 Y92.936 E63.53599
G1 X105.870 Y92.936 E63.69998
G1 X104.640 Y91.896 E63.78035
G1 X104.461 Y90.781 E63.83669
G1 X104.448 Y88.842 E63.93343
G1 X104.213 Y88.608 E63.94996
G1 X95.787 Y88.608 E64.37036
G1 X95.552 Y88.842 E64.38690
G1 X95.539 Y90.781 E64.48363
G1 X95.360 Y91.896 E64.53997
G1 X94.130 Y92.936 E64.62034
G1 X90.843 Y92.936 E64.78434
G1 X89.600 Y91.851 E64.86665
G1 X89.457 Y90.763 E64.92140
G1 X89.448 Y88.842 E65.01724
G1 X89.214 Y88.608 E65.03377
G1 X88.072 Y88.608 E65.09074
G1 X86.783 Y87.319 E65.18167
G1 X86.783 Y70.094 E66.04103
G1 X87.183 Y70.200 F7800.000
G1 X88.238 Y69.145 E66.11542 F1200.000
G1 X91.919 Y69.145 E66.29907
G1 X92.973 Y70.200 E66.37347
G1 X92.973 Y78.268 E66.77601 F1200.000
G1 X93.208 Y78.503 E66.79255
G1 X106.792 Y78.503 E67.47029
G1 X107.027 Y78.268 E67.48683
G1 X107.027 Y70.200 E67.88937
G1 X108.081 Y69.145 E67.96377
G1 X111.762 Y69.145 E68.14742
G1 X112.817 Y70.200 E68.22181
G1 X112.817 Y87.153 E69.06764
G1 X111.762 Y88.208 E69.14203
G1 X110.386 Y88.208 E69.21068
G1 X110.152 Y88.442 E69.22722
G1 X110.143 Y90.741 E69.34191
G1 X110.024 Y91.649 E69.38758
G1 X109.007 Y92.536 E69.45492
G1 X106.017 Y92.536 E69.60412
G1 X105.010 Y91.685 E69.66988
G1 X104.860 Y90.752 E69.71704
G1 X104.848 Y88.442 E69.83228
G1 X104.613 Y88.208 E69.84881
G1 X95.387 Y88.208 E70.30912
G1 X95.152 Y88.442 E70.32565
G1 X95.140 Y90.752 E70.44089
G1 X94.990 Y91.685 E70.48805
G1 X93.983 Y92.536 E70.55380
G1 X90.993 Y92.536 E70.70301
G1 X89.976 Y91.649 E70.77036
G1 X89.857 Y90.741 E70.81602
G1 X89.848 Y88.442 E70.93072
G1 X89.614 Y88.208 E70.94725
G1 X88.238 Y88.208 E71.01590
G1 X87.183 Y87.153 E71.09030
G1 X87.183 Y70.260 E71.93313
G1 X87.583 Y70.365 F7800.000
G1 X88.403 Y69.545 E71.99099 F1200.000
G1 X91.753 Y69.545 E72.15811
G1 X92.573 Y70.365 E72.21597 F1200.000
G1 X92.573 Y78.668 E72.63021
G1 X92.808 Y78.903 E72.64674
G1 X107.192 Y78.903 E73.36440
G1 X107.427 Y78.668 E73.38093
G1 X107.427 Y70.365 E73.79517
G1 X108.247 Y69.545 E73.85303
G1 X111.596 Y69.545 E74.02015
G1 X112.417 Y70.365 E74.07801
G1 X112.417 Y86.988 E74.90730
G1 X111.596 Y87.808 E74.96516
G1 X109.986 Y87.808 E75.04551
G1 X109.752 Y88.042 E75.06204
G1 X109.744 Y90.719 E75.19558
G1 X109.648 Y91.446 E75.23216
G1 X108.857 Y92.136 E75.28454
G1 X106.163 Y92.136 E75.41896
G1 X105.380 Y91.474 E75.47010
G1 X105.268 Y90.810 E75.50370
G1 X105.248 Y90.458 E75.52130
G1 X105.248 Y88.042 E75.64183
G1 X105.013 Y87.808 E75.65836
G1 X94.987 Y87.808 E76.15859
G1 X94.752 Y88.042 E76.17512
G1 X94.752 Y90.458 E76.29565
G1 X94.732 Y90.810 E76.31325
G1 X94.620 Y91.474 E76.34684
G1 X93.837 Y92.136 E76.39799
G1 X91.143 Y92.136 E76.53240
G1 X90.352 Y91.446 E76.58479
G1 X90.256 Y90.719 E76.62137
G1 X90.248 Y88.042 E76.75491
G1 X90.014 Y87.808 E76.77144
G1 X88.403 Y87.808 E76.85178
G1 X87.583 Y86.988 E76.90965
G1 X87.583 Y70.425 E77.73595
G1 X87.983 Y70.531 F7800.000
G1 X88.569 Y69.945 E77.77728 F1200.000
G1 X91.587 Y69.945 E77.92786
G1 X92.173 Y70.531 E77.96919
G1 X92.173 Y79.068 E78.39512 F1200.000
G1 X92.408 Y79.303 E78.41165
G1 X107.592 Y79.303 E79.16922
G1 X107.827 Y79.068 E79.18575
G1 X107.827 Y70.531 E79.61168
G1 X108.413 Y69.945 E79.65301
G1 X111.431 Y69.945 E79.80359
G1 X112.017 Y70.531 E79.84492
G1 X112.017 Y86.822 E80.65769
G1 X111.431 Y87.408 E80.69902
G1 X109.586 Y87.408 E80.79105
G1 X109.352 Y87.642 E80.80758
G1 X109.352 Y90.436 E80.94697
G1 X109.340 Y90.750 E80.96265
G1 X109.272 Y91.243 E80.98747
G1 X108.707 Y91.736 E81.02489
G1 X106.309 Y91.736 E81.14451
G1 X105.750 Y91.263 E81.18104
G1 X105.665 Y90.756 E81.20671
G1 X105.648 Y90.446 E81.22222
G1 X105.648 Y87.642 E81.36209
G1 X105.413 Y87.408 E81.37862
G1 X94.587 Y87.408 E81.91876
G1 X94.352 Y87.642 E81.93529
G1 X94.352 Y90.446 E82.07516
G1 X94.335 Y90.756 E82.09067
G1 X94.250 Y91.263 E82.11634
G1 X93.691 Y91.736 E82.15287
G1 X91.293 Y91.736 E82.27250
G1 X90.728 Y91.243 E82.30991
G1 X90.660 Y90.750 E82.33474
G1 X90.648 Y90.436 E82.35041
G1 X90.648 Y87.642 E82.48980
G1 X90.414 Y87.408 E82.50633
G1 X88.569 Y87.408 E82.59837
G1 X87.983 Y86.822 E82.63970
G1 X87.983 Y70.591 E83.44947
G1 X88.383 Y70.697 F7800.000
G1 X88.735 Y70.345 E83.47426 F1200.000
G1 X91.422 Y70.345 E83.60832
G1 X91.773 Y70.697 E83.63311 F1200.000
G1 X91.773 Y79.468 E84.07073
G1 X92.008 Y79.703 E84.08726
G1 X107.992 Y79.703 E84.88475
G1 X108.227 Y79.468 E84.90128
G1 X108.227 Y70.697 E85.33890
G1 X108.578 Y70.345 E85.36369
G1 X111.265 Y70.345 E85.49775
G1 X111.617 Y70.697 E85.52254
G1 X111.617 Y86.656 E86.31877
G1 X111.265 Y87.008 E86.34357
G1 X109.186 Y87.008 E86.44729
G1 X108.952 Y87.242 E86.46383
G1 X108.942 Y90.707 E86.63666
G1 X108.896 Y91.040 E86.65347
G1 X108.557 Y91.336 E86.67592
G1 X106.456 Y91.336 E86.78076
G1 X106.120 Y91.053 E86.80268
G1 X106.061 Y90.702 E86.82041
G1 X106.048 Y90.421 E86.83446
G1 X106.048 Y87.242 E86.99304
G1 X105.813 Y87.008 E87.00957
G1 X94.187 Y87.008 E87.58962
G1 X93.952 Y87.242 E87.60616
G1 X93.952 Y90.421 E87.76474
G1 X93.939 Y90.702 E87.77879
G1 X93.880 Y91.053 E87.79652
G1 X93.544 Y91.336 E87.81844
G1 X91.443 Y91.336 E87.92328
G1 X91.104 Y91.040 E87.94573
G1 X91.058 Y90.706 E87.96254
G1 X91.048 Y90.427 E87.97647
G1 X91.048 Y87.242 E88.13538
G1 X90.814 Y87.008 E88.15191
G1 X88.735 Y87.008 E88.25564
G1 X88.383 Y86.656 E88.28043
G1 X88.383 Y70.757 E89.07367
G1 X88.783 Y70.862 F7800.000
G1 X88.901 Y70.745 E89.08194 F1200.000
G1 X91.256 Y70.745 E89.19946
G1 X91.373 Y70.862 E89.20772
G1 X91.373 Y79.868 E89.65703 F1200.000
G1 X91.608 Y80.103 E89.67356
G1 X108.392 Y80.103 E90.51096
G1 X108.627 Y79.868 E90.52749
G1 X108.627 Y70.862 E90.97679
G1 X108.744 Y70.745 E90.98506
G1 X111.099 Y70.745 E91.10258
G1 X111.217 Y70.862 E91.11085
G1 X111.217 Y86.491 E91.89054
