; generated by Slic3r 1.2.7-dev on 2015-05-18 at 17:07:35

; external perimeters extrusion width = 0.40mm
; perimeters extrusion width = 0.67mm
; infill extrusion width = 0.67mm
; solid infill extrusion width = 0.67mm
; top infill extrusion width = 0.67mm

M107
G28 ; home all axes
G1 Z5 F5000 ; lift nozzle

G21 ; set units to millimeters
G90 ; use absolute coordinates
M82 ; use absolute distances for extrusion
G92 E0
G1 Z0.200 F6000.000
G1 E-2.00000 F2400.00000
G92 E0
G1 X50.361 Y36.608 F6000.000
G1 E2.00000 F2400.00000
G1 X51.027 Y35.692 E2.03361 F1200.000
G1 X51.294 Y35.425 E2.04484
G1 X53.171 Y34.061 E2.11374
G1 X53.507 Y33.890 E2.12491
G1 X55.718 Y33.172 E2.19394
G1 X56.094 Y33.112 E2.20524
G1 X57.250 Y33.022 E2.23968
G1 X122.750 Y33.022 E4.18446
G1 X123.911 Y33.113 E4.21905
G1 X124.287 Y33.173 E4.23035 F1200.000
G1 X126.494 Y33.891 E4.29925
G1 X126.829 Y34.061 E4.31040
G1 X128.708 Y35.427 E4.37938
G1 X128.975 Y35.694 E4.39060
G1 X130.339 Y37.571 E4.45949
G1 X130.509 Y37.906 E4.47064
G1 X131.228 Y40.118 E4.53970
G1 X131.287 Y40.489 E4.55085
G1 X131.378 Y41.650 E4.58544
G1 X131.378 Y138.350 E7.45659
G1 X131.287 Y139.511 E7.49118
G1 X131.228 Y139.882 E7.50232
G1 X130.510 Y142.093 E7.57135
G1 X130.339 Y142.429 E7.58253
G1 X128.973 Y144.308 E7.65150
G1 X128.708 Y144.573 E7.66265
G1 X126.829 Y145.939 E7.73162
G1 X126.494 Y146.109 E7.74277
G1 X124.287 Y146.828 E7.81169
G1 X123.912 Y146.887 E7.82297
G1 X122.750 Y146.978 E7.85756
G1 X57.250 Y146.978 E9.80234
G1 X56.088 Y146.887 E9.83694
G1 X55.718 Y146.828 E9.84809
G1 X53.506 Y146.109 E9.91714
G1 X53.171 Y145.939 E9.92829
G1 X51.294 Y144.575 E9.99718
G1 X51.027 Y144.308 E10.00841
G1 X49.661 Y142.429 E10.07738
G1 X49.491 Y142.094 E10.08852
G1 X48.772 Y139.883 E10.15755
G1 X48.713 Y139.511 E10.16873
G1 X48.622 Y138.350 E10.20332
G1 X48.622 Y41.650 E13.07447
G1 X48.713 Y40.489 E13.10906
G1 X48.772 Y40.113 E13.12034
G1 X49.491 Y37.906 E13.18927
G1 X49.662 Y37.569 E13.20049
G1 X50.326 Y36.656 E13.23399
G1 X50.611 Y36.864 F6000.000
G1 X51.279 Y35.945 E13.26773 F1200.000
G1 X51.546 Y35.677 E13.27895
G1 X53.333 Y34.379 E13.34453
G1 X53.669 Y34.208 E13.35571
G1 X55.774 Y33.524 E13.42142
G1 X56.149 Y33.465 E13.43271
G1 X57.250 Y33.379 E13.46550
G1 X122.750 Y33.379 E15.41028
G1 X123.856 Y33.466 E15.44320
G1 X124.231 Y33.525 E15.45449 F1200.000
G1 X126.332 Y34.209 E15.52009
G1 X126.667 Y34.379 E15.53124
G1 X128.455 Y35.679 E15.59690
G1 X128.723 Y35.946 E15.60812
G1 X130.021 Y37.733 E15.67370
G1 X130.191 Y38.068 E15.68484
G1 X130.876 Y40.174 E15.75058
G1 X130.934 Y40.544 E15.76173
G1 X131.021 Y41.650 E15.79466
G1 X131.021 Y138.350 E18.66581
G1 X130.934 Y139.456 E18.69873
G1 X130.876 Y139.826 E18.70988
G1 X130.192 Y141.931 E18.77559
G1 X130.021 Y142.267 E18.78677
G1 X128.721 Y144.055 E18.85242
G1 X128.455 Y144.321 E18.86357
G1 X126.667 Y145.621 E18.92923
G1 X126.332 Y145.791 E18.94037
G1 X124.231 Y146.475 E19.00599
G1 X123.856 Y146.534 E19.01726
G1 X122.750 Y146.621 E19.05019
G1 X57.250 Y146.621 E20.99497
G1 X56.144 Y146.534 E21.02790
G1 X55.773 Y146.476 E21.03905
G1 X53.668 Y145.791 E21.10478
G1 X53.333 Y145.621 E21.11593
G1 X51.546 Y144.323 E21.18151
G1 X51.279 Y144.055 E21.19273
G1 X49.979 Y142.267 E21.25839
G1 X49.809 Y141.932 E21.26954
G1 X49.125 Y139.828 E21.33524
G1 X49.066 Y139.456 E21.34642
G1 X48.979 Y138.350 E21.37935
G1 X48.979 Y41.650 E24.25050
G1 X49.066 Y40.544 E24.28343
G1 X49.125 Y40.169 E24.29470
G1 X49.809 Y38.068 E24.36031
G1 X49.980 Y37.731 E24.37153
G1 X50.576 Y36.912 E24.40159
G1 X50.861 Y37.120 F6000.000
G1 X51.532 Y36.197 E24.43546 F1200.000
G1 X51.799 Y35.930 E24.44668
G1 X53.496 Y34.697 E24.50895
G1 X53.831 Y34.526 E24.52012
G1 X55.829 Y33.877 E24.58251
G1 X56.205 Y33.818 E24.59380
G1 X57.250 Y33.736 E24.62493
G1 X122.750 Y33.736 E26.56971
G1 X123.800 Y33.818 E26.60097
G1 X124.175 Y33.878 E26.61226 F1200.000
G1 X126.170 Y34.527 E26.67454
G1 X126.504 Y34.697 E26.68569
G1 X128.203 Y35.932 E26.74803
G1 X128.470 Y36.199 E26.75925
G1 X129.703 Y37.896 E26.82152
G1 X129.873 Y38.230 E26.83266
G1 X130.523 Y40.229 E26.89508
G1 X130.582 Y40.600 E26.90623
G1 X130.664 Y41.650 E26.93750
G1 X130.664 Y138.350 E29.80864
G1 X130.582 Y139.400 E29.83991
G1 X130.523 Y139.771 E29.85105
G1 X129.874 Y141.769 E29.91345
G1 X129.703 Y142.104 E29.92462
G1 X128.468 Y143.803 E29.98696
G1 X128.203 Y144.068 E29.99811
G1 X126.504 Y145.303 E30.06045
G1 X126.170 Y145.473 E30.07160
G1 X124.175 Y146.122 E30.13390
G1 X123.800 Y146.182 E30.14516
G1 X122.750 Y146.264 E30.17643
G1 X57.250 Y146.264 E32.12121
G1 X56.200 Y146.182 E32.15248
G1 X55.829 Y146.123 E32.16363
G1 X53.830 Y145.473 E32.22604
G1 X53.496 Y145.303 E32.23719
G1 X51.799 Y144.070 E32.29946
G1 X51.532 Y143.803 E32.31068
G1 X50.297 Y142.104 E32.37302
G1 X50.127 Y141.770 E32.38416
G1 X49.477 Y139.772 E32.44655
G1 X49.418 Y139.400 E32.45773
G1 X49.336 Y138.350 E32.48900
G1 X49.336 Y41.650 E35.36014
G1 X49.418 Y40.600 E35.39141
G1 X49.478 Y40.225 E35.40268
G1 X50.127 Y38.230 E35.46498
G1 X50.298 Y37.894 E35.47619
G1 X50.826 Y37.168 E35.50282
G1 X51.111 Y37.376 F6000.000
G1 X51.784 Y36.450 E35.53681 F1200.000
G1 X52.051 Y36.182 E35.54803
G1 X53.658 Y35.015 E35.60698
G1 X53.993 Y34.845 E35.61815
G1 X55.885 Y34.230 E35.67723
G1 X56.260 Y34.170 E35.68851
G1 X57.250 Y34.093 E35.71798
G1 X122.750 Y34.093 E37.66276
G1 X123.744 Y34.171 E37.69236
G1 X124.119 Y34.230 E37.70364 F1200.000
G1 X126.008 Y34.845 E37.76261
G1 X126.342 Y35.015 E37.77375
G1 X127.950 Y36.184 E37.83278
G1 X128.218 Y36.451 E37.84400
G1 X129.385 Y38.058 E37.90295
G1 X129.555 Y38.392 E37.91410
G1 X130.170 Y40.285 E37.97320
G1 X130.229 Y40.656 E37.98435
G1 X130.307 Y41.650 E38.01395
G1 X130.307 Y138.350 E40.88510
G1 X130.229 Y139.344 E40.91470
G1 X130.170 Y139.715 E40.92585
G1 X129.555 Y141.607 E40.98492
G1 X129.385 Y141.942 E40.99610
G1 X128.216 Y143.550 E41.05512
G1 X127.950 Y143.816 E41.06627
G1 X126.342 Y144.985 E41.12529
G1 X126.008 Y145.155 E41.13644
G1 X124.119 Y145.770 E41.19543
G1 X123.744 Y145.829 E41.20668
G1 X122.750 Y145.907 E41.23629
G1 X57.250 Y145.907 E43.18107
G1 X56.256 Y145.829 E43.21067
G1 X55.885 Y145.770 E43.22182
G1 X53.992 Y145.155 E43.28092
G1 X53.658 Y144.985 E43.29206
G1 X52.051 Y143.818 E43.35102
G1 X51.784 Y143.550 E43.36224
G1 X50.615 Y141.942 E43.42126
G1 X50.445 Y141.608 E43.43241
G1 X49.830 Y139.716 E43.49148
G1 X49.771 Y139.344 E43.50266
G1 X49.693 Y138.350 E43.53226
G1 X49.693 Y41.650 E46.40341
G1 X49.771 Y40.656 E46.43301
G1 X49.830 Y40.281 E46.44427
G1 X50.445 Y38.392 E46.50326
G1 X50.616 Y38.056 E46.51447
G1 X51.076 Y37.424 E46.53766
G1 E44.53766 F2400.00000
G92 E0
G1 X55.821 Y40.664 F6000.000
G1 E2.00000 F2400.00000
G1 X56.165 Y40.302 E2.01482 F1200.000
G1 X56.264 Y40.221 E2.01862
G1 X56.754 Y39.986 E2.03474
G1 X57.229 Y39.914 E2.04902
G1 X72.443 Y39.914 E2.50073
G1 X72.756 Y40.228 E2.51390
G1 X72.756 Y57.694 E3.03248 F1200.000
G1 X72.964 Y59.016 E3.07221
G1 X73.550 Y60.186 E3.11106
G1 X74.514 Y61.150 E3.15156
G1 X75.684 Y61.736 E3.19042
G1 X77.006 Y61.944 E3.23015
G1 X83.394 Y61.944 E3.41980
G1 X84.716 Y61.736 E3.45953
G1 X85.931 Y61.117 E3.50004
G1 X86.817 Y60.231 E3.53724
G1 X87.419 Y59.069 E3.57609
G1 X87.644 Y57.694 E3.61747
G1 X87.644 Y40.228 E4.13605
G1 X87.957 Y39.914 E4.14922
G1 X122.771 Y39.914 E5.18288
G1 X123.246 Y39.986 E5.19716
G1 X123.736 Y40.221 E5.21328
G1 X124.129 Y40.596 E5.22941
G1 X124.388 Y41.073 E5.24553
G1 X124.486 Y41.629 E5.26228
G1 X124.486 Y44.372 E5.34372
G1 X124.172 Y44.686 E5.35690
G1 X90.606 Y44.686 E6.35351
G1 X90.383 Y44.728 E6.36024
G1 X90.306 Y44.767 E6.36281
G1 X90.200 Y44.861 E6.36702
G1 X90.128 Y44.983 E6.37124
G1 X90.086 Y45.206 E6.37798
G1 X90.086 Y58.394 E6.76954
G1 X90.128 Y58.617 E6.77627
G1 X90.200 Y58.739 E6.78049
G1 X90.261 Y58.800 E6.78306
G1 X90.383 Y58.872 E6.78727
G1 X90.606 Y58.914 E6.79401
G1 X122.094 Y58.914 E7.72892
G1 X122.317 Y58.872 E7.73566
G1 X122.439 Y58.800 E7.73987
G1 X122.533 Y58.694 E7.74409
G1 X122.590 Y58.563 E7.74831
G1 X122.614 Y58.394 E7.75340
G1 X122.614 Y46.428 E8.10867
G1 X122.928 Y46.114 E8.12185
G1 X124.172 Y46.114 E8.15878
G1 X124.486 Y46.428 E8.17195
G1 X124.486 Y138.371 E10.90186
G1 X124.414 Y138.846 E10.91612
G1 X124.179 Y139.336 E10.93225
G1 X123.804 Y139.729 E10.94838
G1 X123.327 Y139.988 E10.96451
G1 X122.771 Y140.086 E10.98125
G1 X57.229 Y140.086 E12.92728
G1 X56.754 Y140.014 E12.94155
G1 X56.264 Y139.779 E12.95768
G1 X55.871 Y139.404 E12.97381
G1 X55.821 Y139.336 E12.97632
G1 X55.586 Y138.846 E12.99244
G1 X55.514 Y138.371 E13.00671
G1 X55.514 Y41.629 E15.87911
G1 X55.586 Y41.154 E15.89338
G1 X55.794 Y40.717 E15.90773
G1 X56.112 Y40.879 F6000.000
G1 X56.143 Y40.828 E15.90950 F1200.000
G1 X56.451 Y40.527 E15.92231
G1 X56.837 Y40.335 E15.93511
G1 X57.243 Y40.271 E15.94730
G1 X72.295 Y40.271 E16.39421
G1 X72.399 Y40.376 E16.39860 F1200.000
G1 X72.399 Y57.722 E16.91362
G1 X72.620 Y59.127 E16.95586
G1 X73.257 Y60.398 E16.99808
G1 X74.256 Y61.410 E17.04028
G1 X75.519 Y62.063 E17.08250
G1 X76.978 Y62.301 E17.12639
G1 X83.422 Y62.301 E17.31771
G1 X84.827 Y62.080 E17.35996
G1 X86.144 Y61.410 E17.40382
G1 X87.143 Y60.398 E17.44603
G1 X87.763 Y59.181 E17.48660
G1 X88.001 Y57.722 E17.53049
G1 X88.001 Y40.376 E18.04551
G1 X88.105 Y40.271 E18.04990
G1 X122.757 Y40.271 E19.07875
G1 X123.163 Y40.335 E19.09094
G1 X123.549 Y40.526 E19.10374
G1 X123.873 Y40.851 E19.11738
G1 X124.065 Y41.237 E19.13018
G1 X124.129 Y41.643 E19.14237
G1 X124.129 Y44.224 E19.21900
G1 X124.024 Y44.329 E19.22340
G1 X90.578 Y44.329 E20.21645
G1 X90.271 Y44.384 E20.22570
G1 X90.094 Y44.474 E20.23162
G1 X89.907 Y44.648 E20.23919
G1 X89.784 Y44.872 E20.24676
G1 X89.729 Y45.178 E20.25602
G1 X89.729 Y58.422 E20.64924
G1 X89.784 Y58.728 E20.65849
G1 X89.907 Y58.952 E20.66606
G1 X90.048 Y59.093 E20.67198
G1 X90.271 Y59.216 E20.67956
G1 X90.578 Y59.271 E20.68881
G1 X122.122 Y59.271 E21.62538
G1 X122.429 Y59.216 E21.63463
G1 X122.652 Y59.093 E21.64221
G1 X122.826 Y58.906 E21.64978
G1 X122.934 Y58.675 E21.65736
G1 X122.971 Y58.422 E21.66496
G1 X122.971 Y46.576 E22.01667
G1 X123.076 Y46.471 E22.02107
G1 X124.024 Y46.471 E22.04921
G1 X124.129 Y46.576 E22.05360
G1 X124.129 Y138.357 E24.77870
G1 X124.065 Y138.763 E24.79088
G1 X123.873 Y139.149 E24.80369
G1 X123.549 Y139.474 E24.81732
G1 X123.163 Y139.665 E24.83013
G1 X122.757 Y139.729 E24.84232
G1 X57.243 Y139.729 E26.78751
G1 X56.837 Y139.665 E26.79970
G1 X56.451 Y139.473 E26.81251
G1 X56.126 Y139.149 E26.82614
G1 X55.935 Y138.763 E26.83894
G1 X55.871 Y138.357 E26.85113
G1 X55.871 Y41.643 E29.72270
G1 X55.935 Y41.237 E29.73489
G1 X56.085 Y40.933 E29.74497
G1 X56.422 Y41.105 F6000.000
G1 X56.664 Y40.843 E29.75554 F1200.000
G1 X56.942 Y40.701 E29.76481
G1 X57.266 Y40.650 E29.77455
G1 X72.021 Y40.650 E30.21264
G1 X72.021 Y57.766 E30.72083
G1 X72.260 Y59.274 E30.76617 F1200.000
G1 X72.960 Y60.649 E30.81199
G1 X74.051 Y61.740 E30.85780
G1 X75.426 Y62.440 E30.90361
G1 X76.934 Y62.679 E30.94895
G1 X83.466 Y62.679 E31.14288
G1 X84.974 Y62.440 E31.18822
G1 X86.349 Y61.740 E31.23404
G1 X87.440 Y60.649 E31.27985
G1 X88.140 Y59.274 E31.32566
G1 X88.379 Y57.766 E31.37100
G1 X88.379 Y40.650 E31.87919
G1 X122.734 Y40.650 E32.89924
G1 X123.058 Y40.701 E32.90897
G1 X123.336 Y40.843 E32.91824
G1 X123.557 Y41.064 E32.92751
G1 X123.699 Y41.342 E32.93677
G1 X123.750 Y41.666 E32.94651
G1 X123.750 Y43.950 E33.01434
G1 X90.534 Y43.950 E34.00055
G1 X90.178 Y44.006 E34.01125
G1 X89.843 Y44.177 E34.02242
G1 X89.577 Y44.443 E34.03359
G1 X89.406 Y44.778 E34.04476
G1 X89.350 Y45.134 E34.05546
G1 X89.350 Y58.466 E34.45129
G1 X89.406 Y58.822 E34.46199
G1 X89.577 Y59.157 E34.47316
G1 X89.843 Y59.423 E34.48433
G1 X90.178 Y59.594 E34.49550
G1 X90.534 Y59.650 E34.50620
G1 X122.166 Y59.650 E35.44538
G1 X122.522 Y59.594 E35.45607
G1 X122.857 Y59.423 E35.46725
G1 X123.123 Y59.157 E35.47841
G1 X123.294 Y58.822 E35.48959
G1 X123.350 Y58.466 E35.50028
G1 X123.350 Y46.850 E35.84517
G1 X123.750 Y46.850 E35.85705
G1 X123.750 Y138.334 E38.57333
G1 X123.699 Y138.658 E38.58307
G1 X123.557 Y138.936 E38.59234
G1 X123.336 Y139.157 E38.60160
G1 X123.058 Y139.299 E38.61087
G1 X122.734 Y139.350 E38.62061
G1 X57.266 Y139.350 E40.56445
G1 X56.942 Y139.299 E40.57419
G1 X56.664 Y139.157 E40.58346
G1 X56.443 Y138.936 E40.59273
G1 X56.301 Y138.658 E40.60199
G1 X56.250 Y138.334 E40.61173
G1 X56.250 Y41.666 E43.48195
G1 X56.301 Y41.342 E43.49168
G1 X56.395 Y41.158 E43.49780
G1 X56.775 Y41.151 F6000.000
G1 X56.713 Y41.320 F6000.000
G1 X56.876 Y41.135 E43.50513 F1200.000
G1 X57.054 Y41.045 E43.51103
G1 X57.294 Y41.007 E43.51826
G1 X71.664 Y41.007 E43.94492
G1 X71.664 Y57.794 E44.44334
G1 X71.916 Y59.386 E44.49119 F1200.000
G1 X72.668 Y60.861 E44.54036
G1 X73.839 Y62.032 E44.58953
G1 X75.314 Y62.784 E44.63871
G1 X76.906 Y63.036 E44.68656
G1 X83.494 Y63.036 E44.88216
G1 X85.086 Y62.784 E44.93001
G1 X86.561 Y62.032 E44.97918
G1 X87.732 Y60.861 E45.02835
G1 X88.484 Y59.386 E45.07753
G1 X88.736 Y57.794 E45.12538
G1 X88.736 Y41.007 E45.62380
G1 X122.706 Y41.007 E46.63241
G1 X122.946 Y41.045 E46.63963
G1 X123.124 Y41.135 E46.64554
G1 X123.265 Y41.276 E46.65145
G1 X123.355 Y41.454 E46.65736
G1 X123.393 Y41.694 E46.66458
G1 X123.393 Y43.593 E46.72097
G1 X90.506 Y43.593 E47.69742
G1 X90.067 Y43.662 E47.71063
G1 X89.631 Y43.885 E47.72516
G1 X89.285 Y44.231 E47.73969
G1 X89.063 Y44.667 E47.75422
G1 X88.993 Y45.106 E47.76743
G1 X88.993 Y58.494 E48.16493
G1 X89.063 Y58.933 E48.17814
G1 X89.285 Y59.369 E48.19267
G1 X89.631 Y59.715 E48.20720
G1 X90.067 Y59.938 E48.22173
G1 X90.506 Y60.007 E48.23494
G1 X122.194 Y60.007 E49.17578
G1 X122.633 Y59.938 E49.18900
G1 X123.069 Y59.715 E49.20353
G1 X123.393 Y59.392 E49.21711
G1 X123.393 Y138.306 E51.56019
G1 X123.355 Y138.546 E51.56741
G1 X123.265 Y138.724 E51.57332
G1 X123.124 Y138.865 E51.57923
G1 X122.946 Y138.955 E51.58514
G1 X122.706 Y138.993 E51.59236
G1 X57.294 Y138.993 E53.53454
G1 X57.054 Y138.955 E53.54176
G1 X56.876 Y138.865 E53.54767
G1 X56.735 Y138.724 E53.55358
G1 X56.645 Y138.546 E53.55949
G1 X56.607 Y138.306 E53.56671
G1 X56.607 Y41.694 E56.43526
G1 X56.645 Y41.454 E56.44248
G1 X56.686 Y41.374 E56.44514
G1 E54.44514 F2400.00000
G92 E0
G1 X71.221 Y41.450 F6000.000
G1 X58.601 Y44.064 F6000.000
G1 X57.194 Y49.784 F6000.000
G1 X62.366 Y104.884 F6000.000
G1 X85.000 Y107.754 F6000.000
G1 X85.425 Y121.290 F6000.000
G1 X96.063 Y124.181 F6000.000
G1 X96.795 Y132.538 F6000.000
G1 E2.00000 F2400.00000
G1 X96.744 Y132.463 E2.00269 F1200.000
G1 X96.682 Y132.150 E2.01216
G1 X96.744 Y131.837 E2.02164
G1 X96.922 Y131.572 E2.03111
G1 X97.187 Y131.394 E2.04059
G1 X97.500 Y131.332 E2.05007
G1 X98.443 Y131.520 E2.07862
G1 X98.256 Y132.463 E2.10718 F1200.000
G1 X98.078 Y132.728 E2.11666
G1 X97.813 Y132.906 E2.12613
G1 X97.500 Y132.968 E2.13561
G1 X97.187 Y132.906 E2.14508
G1 X96.922 Y132.728 E2.15456
G1 X96.828 Y132.588 E2.15957
G1 E0.15957 F2400.00000
G92 E0
G1 X94.513 Y129.900 F6000.000
G1 X94.513 Y129.900 F6000.000
G1 X97.572 Y128.454 F6000.000
G1 E2.00000 F2400.00000
G1 X97.500 Y128.468 E2.00217 F1200.000
G1 X97.187 Y128.406 E2.01164
G1 X96.922 Y128.228 E2.02112
G1 X96.744 Y127.963 E2.03060
G1 X96.682 Y127.650 E2.04007
G1 X96.744 Y127.337 E2.04955
G1 X96.922 Y127.072 E2.05902
G1 X97.187 Y126.894 E2.06850
G1 X97.500 Y126.832 E2.07797
G1 X97.813 Y126.894 E2.08745
G1 X98.078 Y127.072 E2.09693 F1200.000
G1 X98.256 Y127.337 E2.10640
G1 X98.443 Y128.280 E2.13496
G1 X97.630 Y128.442 E2.15957
G1 E0.15957 F2400.00000
G92 E0
G1 X93.745 Y127.650 F6000.000
G1 X92.412 Y121.441 F6000.000
G1 X67.909 Y121.290 F6000.000
G1 X66.253 Y119.272 F6000.000
G1 X64.306 Y112.440 F6000.000
G1 E2.00000 F2400.00000
G1 X64.167 Y112.468 E2.00421 F1200.000
G1 X63.854 Y112.406 E2.01368
G1 X63.588 Y112.228 E2.02316
G1 X63.411 Y111.963 E2.03263
G1 X63.349 Y111.650 E2.04211
G1 X63.411 Y111.337 E2.05159
G1 X63.588 Y111.072 E2.06106
G1 X63.854 Y110.894 E2.07054
G1 X64.167 Y110.832 E2.08001
G1 X64.480 Y110.894 E2.08949
G1 X64.745 Y111.072 E2.09896 F1200.000
G1 X64.922 Y111.337 E2.10844
G1 X65.110 Y112.280 E2.13700
G1 X64.365 Y112.429 E2.15956
G1 E0.15956 F2400.00000
G92 E0
G1 X65.417 Y115.400 F6000.000
