; generated by Slic3r 1.1.7 on 2015-06-03 at 14:33:28

; perimeters extrusion width = 0.40mm
; infill extrusion width = 0.67mm
; solid infill extrusion width = 0.67mm
; top infill extrusion width = 0.67mm

G21 ; set units to millimeters
M107
M190 S65 ; wait for bed temperature to be reached
M104 S220 ; set temperature
G28 ; home all axes
G1 Z5 F5000 ; lift nozzle

M109 S220 ; wait for temperature to be reached
G90 ; use absolute coordinates
G92 E0
M82 ; use absolute distances for extrusion
G1 Z0.300 F7800.000
G1 F2400.000 E-2.00000
G92 E0
G1 X43.399 Y43.399 F7800.000
G1 E2.00000 F2400.000
G1 X45.098 Y41.700 E2.11986 F1200.000
G1 X154.902 Y41.700 E7.59805
G1 X158.300 Y45.098 E7.83776
G1 X158.300 Y154.902 E13.31595 F1200.000
G1 X154.902 Y158.300 E13.55567
G1 X45.098 Y158.300 E19.03385
G1 X41.700 Y154.902 E19.27357
G1 X41.700 Y45.098 E24.75176
G1 X43.356 Y43.441 E24.86862
G1 X43.639 Y43.724 F7800.000
G1 X45.263 Y42.100 E24.98321 F1200.000
G1 X154.737 Y42.100 E30.44486
G1 X157.900 Y45.263 E30.66805 F1200.000
G1 X157.900 Y154.737 E36.12970
G1 X154.737 Y157.900 E36.35289
G1 X45.263 Y157.900 E41.81454
G1 X42.100 Y154.737 E42.03773
G1 X42.100 Y45.263 E47.49938
G1 X43.597 Y43.766 E47.60499
G1 X43.880 Y44.049 F7800.000
G1 X45.429 Y42.500 E47.71430 F1200.000
G1 X154.571 Y42.500 E53.15942
G1 X157.500 Y45.429 E53.36608
G1 X157.500 Y154.571 E58.81120 F1200.000
G1 X154.571 Y157.500 E59.01785
G1 X45.429 Y157.500 E64.46298
G1 X42.500 Y154.571 E64.66963
G1 X42.500 Y45.429 E70.11475
G1 X43.837 Y44.092 E70.20910
G1 X44.120 Y44.375 F7800.000
G1 X45.595 Y42.900 E70.31314 F1200.000
G1 X154.405 Y42.900 E75.74173
G1 X157.100 Y45.595 E75.93185 F1200.000
G1 X157.100 Y154.405 E81.36044
G1 X154.405 Y157.100 E81.55056
G1 X45.595 Y157.100 E86.97915
G1 X42.900 Y154.405 E87.16927
G1 X42.900 Y45.595 E92.59786
G1 X44.078 Y44.417 E92.68095
G1 X44.360 Y44.700 F7800.000
G1 X45.760 Y43.300 E92.77972 F1200.000
G1 X154.240 Y43.300 E98.19177
G1 X156.700 Y45.760 E98.36536
G1 X156.700 Y154.240 E103.77742 F1200.000
G1 X154.240 Y156.700 E103.95101
G1 X45.760 Y156.700 E109.36307
G1 X43.300 Y154.240 E109.53666
G1 X43.300 Y45.760 E114.94872
G1 X44.318 Y44.742 E115.02054
G1 X44.601 Y45.025 F7800.000
G1 X45.926 Y43.700 E115.11404 F1200.000
G1 X154.074 Y43.700 E120.50956
G1 X156.300 Y45.926 E120.66662 F1200.000
G1 X156.300 Y154.074 E126.06215
G1 X154.074 Y156.300 E126.21920
G1 X45.926 Y156.300 E131.61473
G1 X43.700 Y154.074 E131.77178
G1 X43.700 Y45.926 E137.16731
G1 X44.558 Y45.068 E137.22788
G1 X44.841 Y45.350 F7800.000
G1 X46.092 Y44.100 E137.31610 F1200.000
G1 X153.908 Y44.100 E142.69510
G1 X155.900 Y46.092 E142.83562
G1 X155.900 Y153.908 E148.21461 F1200.000
G1 X153.908 Y155.900 E148.35514
G1 X46.092 Y155.900 E153.73413
G1 X44.100 Y153.908 E153.87466
G1 X44.100 Y46.092 E159.25365
G1 X44.799 Y45.393 E159.30296
G1 X45.082 Y45.676 F7800.000
G1 X46.257 Y44.500 E159.38591 F1200.000
G1 X153.743 Y44.500 E164.74837
G1 X155.500 Y46.257 E164.87236 F1200.000
G1 X155.500 Y153.743 E170.23482
G1 X153.743 Y155.500 E170.35882
G1 X46.257 Y155.500 E175.72128
G1 X44.500 Y153.743 E175.84527
G1 X44.500 Y46.257 E181.20773
G1 X45.039 Y45.718 E181.24578
G1 X45.322 Y46.001 F7800.000
G1 X46.423 Y44.900 E181.32346 F1200.000
G1 X153.577 Y44.900 E186.66939
G1 X155.100 Y46.423 E186.77685
G1 X155.100 Y153.577 E192.12278 F1200.000
G1 X153.577 Y155.100 E192.23024
G1 X46.423 Y155.100 E197.57617
G1 X44.900 Y153.577 E197.68363
G1 X44.900 Y46.423 E203.02956
G1 X45.280 Y46.043 E203.05634
G1 X45.563 Y46.326 F7800.000
G1 X46.589 Y45.300 E203.12875 F1200.000
G1 X153.411 Y45.300 E208.45815
G1 X154.700 Y46.589 E208.54907 F1200.000
G1 X154.700 Y153.411 E213.87847
G1 X153.411 Y154.700 E213.96940
G1 X46.589 Y154.700 E219.29880
G1 X45.300 Y153.411 E219.38972
G1 X45.300 Y46.589 E224.71912
G1 X45.520 Y46.369 E224.73465
G1 X45.803 Y46.651 F7800.000
G1 X46.754 Y45.700 E224.80178 F1200.000
G1 X153.246 Y45.700 E230.11465
G1 X154.300 Y46.754 E230.18904
G1 X154.300 Y153.246 E235.50191 F1200.000
G1 X153.246 Y154.300 E235.57631
G1 X46.754 Y154.300 E240.88917
G1 X45.700 Y153.246 E240.96357
G1 X45.700 Y46.754 E246.27643
G1 X45.761 Y46.694 E246.28070
G1 X46.100 Y46.920 F7800.000
G1 X46.920 Y46.100 E246.33857 F1200.000
G1 X153.080 Y46.100 E251.63490
G1 X153.900 Y46.920 E251.69276 F1200.000
G1 X153.900 Y153.080 E256.98910
G1 X153.080 Y153.900 E257.04696
G1 X46.920 Y153.900 E262.34329
G1 X46.100 Y153.080 E262.40116
G1 X46.100 Y46.980 E267.69450
G1 X46.500 Y47.086 F7800.000
G1 X47.086 Y46.500 E267.73583 F1200.000
G1 X152.914 Y46.500 E273.01563
G1 X153.500 Y47.086 E273.05696
G1 X153.500 Y152.914 E278.33676 F1200.000
G1 X152.914 Y153.500 E278.37809
G1 X47.086 Y153.500 E283.65789
G1 X46.500 Y152.914 E283.69922
G1 X46.500 Y47.146 E288.97603
G1 X46.900 Y47.251 F7800.000
G1 X47.251 Y46.900 E289.00083 F1200.000
G1 X152.749 Y46.900 E294.26410
G1 X153.100 Y47.251 E294.28890 F1200.000
G1 X153.100 Y152.749 E299.55217
G1 X152.749 Y153.100 E299.57697
G1 X47.251 Y153.100 E304.84024
G1 X46.900 Y152.749 E304.86503
G1 X46.900 Y47.311 E310.12531
G1 X47.300 Y47.417 F7800.000
G1 X47.417 Y47.300 E310.13358 F1200.000
G1 X152.583 Y47.300 E315.38031
G1 X152.700 Y47.417 E315.38858
G1 X152.700 Y152.583 E320.63532 F1200.000
G1 X152.583 Y152.700 E320.64358
G1 X47.417 Y152.700 E325.89032
G1 X47.300 Y152.583 E325.89859
G1 X47.300 Y47.477 E331.14233
G1 X47.700 Y47.700 F7800.000
G1 X152.300 Y47.700 E336.36085 F1200.000
G1 X152.300 Y152.300 E341.57936
G1 X47.700 Y152.300 E346.79788 F1200.000
G1 X47.700 Y47.760 E352.01340
G1 X52.300 Y52.300 F7800.000
G1 X147.700 Y52.300 E356.77292 F1200.000
G1 X147.700 Y147.700 E361.53245
G1 X52.300 Y147.700 E366.29198 F1200.000
G1 X52.300 Y52.360 E371.04851
G1 X143.096 Y47.974 F7800.000
G1 X147.147 Y52.026 E371.34786 F1200.000
G1 X146.555 Y52.026 E371.37882
G1 X142.503 Y47.974 E371.67817
G1 X141.911 Y47.974 E371.70913
G1 X145.962 Y52.026 E372.00849
G1 X145.369 Y52.026 E372.03945
G1 X141.318 Y47.974 E372.33880
G1 X140.725 Y47.974 E372.36976
G1 X144.777 Y52.026 E372.66911
G1 X144.184 Y52.026 E372.70008
G1 X140.133 Y47.974 E372.99943
G1 X139.540 Y47.974 E373.03039
G1 X143.591 Y52.026 E373.32974
G1 X142.999 Y52.026 E373.36070
G1 X138.947 Y47.974 E373.66005
G1 X138.355 Y47.974 E373.69102
G1 X142.406 Y52.026 E373.99037
G1 X141.814 Y52.026 E374.02133
G1 X137.762 Y47.974 E374.32068
G1 X137.169 Y47.974 E374.35164
G1 X141.221 Y52.026 E374.65099
G1 X140.628 Y52.026 E374.68196
G1 X136.577 Y47.974 E374.98131
G1 X135.984 Y47.974 E375.01227
G1 X140.036 Y52.026 E375.31162
G1 X139.443 Y52.026 E375.34258
G1 X135.391 Y47.974 E375.64193
G1 X134.799 Y47.974 E375.67290
G1 X138.850 Y52.026 E375.97225
G1 X138.258 Y52.026 E376.00321
G1 X134.206 Y47.974 E376.30256
G1 X133.613 Y47.974 E376.33353
G1 X137.665 Y52.026 E376.63288
G1 X137.072 Y52.026 E376.66384
G1 X133.021 Y47.974 E376.96319
G1 X132.428 Y47.974 E376.99415
G1 X136.480 Y52.026 E377.29350
G1 X135.887 Y52.026 E377.32447
G1 X131.835 Y47.974 E377.62382
G1 X131.243 Y47.974 E377.65478
G1 X135.294 Y52.026 E377.95413
G1 X134.702 Y52.026 E377.98509
G1 X130.650 Y47.974 E378.28444
G1 X130.057 Y47.974 E378.31541
G1 X134.109 Y52.026 E378.61476
G1 X133.516 Y52.026 E378.64572
G1 X129.465 Y47.974 E378.94507
G1 X128.872 Y47.974 E378.97603
G1 X132.924 Y52.026 E379.27538
G1 X132.331 Y52.026 E379.30635
G1 X128.279 Y47.974 E379.60570
G1 X127.687 Y47.974 E379.63666
G1 X131.738 Y52.026 E379.93601
G1 X131.146 Y52.026 E379.96697
G1 X127.094 Y47.974 E380.26632
G1 X126.501 Y47.974 E380.29729
G1 X130.553 Y52.026 E380.59664
G1 X129.960 Y52.026 E380.62760
G1 X125.909 Y47.974 E380.92695
G1 X125.316 Y47.974 E380.95792
G1 X129.368 Y52.026 E381.25727
G1 X128.775 Y52.026 E381.28823
G1 X124.723 Y47.974 E381.58758
G1 X124.131 Y47.974 E381.61854
G1 X128.182 Y52.026 E381.91789
G1 X127.590 Y52.026 E381.94886
G1 X123.538 Y47.974 E382.24821
G1 X122.946 Y47.974 E382.27917
G1 X126.997 Y52.026 E382.57852
G1 X126.404 Y52.026 E382.60948
G1 X122.353 Y47.974 E382.90883
G1 X121.760 Y47.974 E382.93980
G1 X125.812 Y52.026 E383.23915
G1 X125.219 Y52.026 E383.27011
G1 X121.168 Y47.974 E383.56946
G1 X120.575 Y47.974 E383.60042
G1 X124.626 Y52.026 E383.89977
G1 X124.034 Y52.026 E383.93074
G1 X119.982 Y47.974 E384.23009
G1 X119.390 Y47.974 E384.26105
G1 X123.441 Y52.026 E384.56040
G1 X122.848 Y52.026 E384.59136
G1 X118.797 Y47.974 E384.89071
G1 X118.204 Y47.974 E384.92168
G1 X122.256 Y52.026 E385.22103
G1 X121.663 Y52.026 E385.25199
G1 X117.612 Y47.974 E385.55134
G1 X117.019 Y47.974 E385.58231
G1 X121.070 Y52.026 E385.88166
G1 X120.478 Y52.026 E385.91262
G1 X116.426 Y47.974 E386.21197
G1 X115.834 Y47.974 E386.24293
G1 X119.885 Y52.026 E386.54228
G1 X119.292 Y52.026 E386.57325
G1 X115.241 Y47.974 E386.87260
G1 X114.648 Y47.974 E386.90356
G1 X118.700 Y52.026 E387.20291
G1 X118.107 Y52.026 E387.23387
G1 X114.056 Y47.974 E387.53322
G1 X113.463 Y47.974 E387.56419
G1 X117.515 Y52.026 E387.86354
G1 X116.922 Y52.026 E387.89450
G1 X112.870 Y47.974 E388.19385
G1 X112.278 Y47.974 E388.22481
G1 X116.329 Y52.026 E388.52416
G1 X115.737 Y52.026 E388.55513
G1 X111.685 Y47.974 E388.85448
G1 X111.092 Y47.974 E388.88544
G1 X115.144 Y52.026 E389.18479
G1 X114.551 Y52.026 E389.21575
G1 X110.500 Y47.974 E389.51511
G1 X109.907 Y47.974 E389.54607
G1 X113.959 Y52.026 E389.84542
G1 X113.366 Y52.026 E389.87638
G1 X109.314 Y47.974 E390.17573
G1 X108.722 Y47.974 E390.20670
G1 X112.773 Y52.026 E390.50605
G1 X112.181 Y52.026 E390.53701
G1 X108.129 Y47.974 E390.83636
G1 X107.536 Y47.974 E390.86732
G1 X111.588 Y52.026 E391.16667
G1 X110.995 Y52.026 E391.19764
G1 X106.944 Y47.974 E391.49699
G1 X106.351 Y47.974 E391.52795
G1 X110.403 Y52.026 E391.82730
G1 X109.810 Y52.026 E391.85826
G1 X105.758 Y47.974 E392.15761
G1 X105.166 Y47.974 E392.18858
G1 X109.217 Y52.026 E392.48793
G1 X108.625 Y52.026 E392.51889
G1 X104.573 Y47.974 E392.81824
G1 X103.980 Y47.974 E392.84920
G1 X108.032 Y52.026 E393.14855
G1 X107.439 Y52.026 E393.17952
G1 X103.388 Y47.974 E393.47887
G1 X102.795 Y47.974 E393.50983
G1 X106.847 Y52.026 E393.80918
G1 X106.254 Y52.026 E393.84015
G1 X102.202 Y47.974 E394.13950
G1 X101.610 Y47.974 E394.17046
G1 X105.661 Y52.026 E394.46981
G1 X105.069 Y52.026 E394.50077
G1 X101.017 Y47.974 E394.80012
G1 X100.424 Y47.974 E394.83109
G1 X104.476 Y52.026 E395.13044
G1 X103.883 Y52.026 E395.16140
G1 X99.832 Y47.974 E395.46075
G1 X99.239 Y47.974 E395.49171
G1 X103.291 Y52.026 E395.79106
G1 X102.698 Y52.026 E395.82203
G1 X98.647 Y47.974 E396.12138
G1 X98.054 Y47.974 E396.15234
G1 X102.105 Y52.026 E396.45169
G1 X101.513 Y52.026 E396.48265
G1 X97.461 Y47.974 E396.78200
G1 X96.869 Y47.974 E396.81297
G1 X100.920 Y52.026 E397.11232
G1 X100.327 Y52.026 E397.14328
G1 X96.276 Y47.974 E397.44263
G1 X95.683 Y47.974 E397.47359
G1 X99.735 Y52.026 E397.77294
G1 X99.142 Y52.026 E397.80391
G1 X95.091 Y47.974 E398.10326
G1 X94.498 Y47.974 E398.13422
G1 X98.549 Y52.026 E398.43357
G1 X97.957 Y52.026 E398.46454
G1 X93.905 Y47.974 E398.76389
G1 X93.313 Y47.974 E398.79485
G1 X97.364 Y52.026 E399.09420
G1 X96.771 Y52.026 E399.12516
G1 X92.720 Y47.974 E399.42451
G1 X92.127 Y47.974 E399.45548
G1 X96.179 Y52.026 E399.75483
G1 X95.586 Y52.026 E399.78579
G1 X91.535 Y47.974 E400.08514
G1 X90.942 Y47.974 E400.11610
G1 X94.994 Y52.026 E400.41545
G1 X94.401 Y52.026 E400.44642
G1 X90.349 Y47.974 E400.74577
G1 X89.757 Y47.974 E400.77673
G1 X93.808 Y52.026 E401.07608
G1 X93.216 Y52.026 E401.10704
G1 X89.164 Y47.974 E401.40639
G1 X88.571 Y47.974 E401.43736
G1 X92.623 Y52.026 E401.73671
G1 X92.030 Y52.026 E401.76767
G1 X87.979 Y47.974 E402.06702
G1 X87.386 Y47.974 E402.09798
G1 X91.438 Y52.026 E402.39733
G1 X90.845 Y52.026 E402.42830
G1 X86.793 Y47.974 E402.72765
G1 X86.201 Y47.974 E402.75861
G1 X90.252 Y52.026 E403.05796
G1 X89.660 Y52.026 E403.08893
G1 X85.608 Y47.974 E403.38828
G1 X85.015 Y47.974 E403.41924
G1 X89.067 Y52.026 E403.71859
G1 X88.474 Y52.026 E403.74955
G1 X84.423 Y47.974 E404.04890
G1 X83.830 Y47.974 E404.07987
G1 X87.882 Y52.026 E404.37922
G1 X87.289 Y52.026 E404.41018
G1 X83.237 Y47.974 E404.70953
G1 X82.645 Y47.974 E404.74049
G1 X86.696 Y52.026 E405.03984
G1 X86.104 Y52.026 E405.07081
G1 X82.052 Y47.974 E405.37016
G1 X81.459 Y47.974 E405.40112
G1 X85.511 Y52.026 E405.70047
G1 X84.918 Y52.026 E405.73143
G1 X80.867 Y47.974 E406.03078
G1 X80.274 Y47.974 E406.06175
G1 X84.326 Y52.026 E406.36110
G1 X83.733 Y52.026 E406.39206
G1 X79.681 Y47.974 E406.69141
G1 X79.089 Y47.974 E406.72238
G1 X83.140 Y52.026 E407.02173
G1 X82.548 Y52.026 E407.05269
G1 X78.496 Y47.974 E407.35204
G1 X77.903 Y47.974 E407.38300
G1 X81.955 Y52.026 E407.68235
G1 X81.362 Y52.026 E407.71332
G1 X77.311 Y47.974 E408.01267
G1 X76.718 Y47.974 E408.04363
G1 X80.770 Y52.026 E408.34298
G1 X80.177 Y52.026 E408.37394
G1 X76.126 Y47.974 E408.67329
G1 X75.533 Y47.974 E408.70426
G1 X79.584 Y52.026 E409.00361
G1 X78.992 Y52.026 E409.03457
G1 X74.940 Y47.974 E409.33392
G1 X74.348 Y47.974 E409.36488
G1 X78.399 Y52.026 E409.66423
G1 X77.806 Y52.026 E409.69520
G1 X73.755 Y47.974 E409.99455
G1 X73.162 Y47.974 E410.02551
G1 X77.214 Y52.026 E410.32486
G1 X76.621 Y52.026 E410.35582
G1 X72.570 Y47.974 E410.65517
G1 X71.977 Y47.974 E410.68614
G1 X76.028 Y52.026 E410.98549
G1 X75.436 Y52.026 E411.01645
G1 X71.384 Y47.974 E411.31580
G1 X70.792 Y47.974 E411.34677
G1 X74.843 Y52.026 E411.64612
G1 X74.250 Y52.026 E411.67708
G1 X70.199 Y47.974 E411.97643
G1 X69.606 Y47.974 E412.00739
G1 X73.658 Y52.026 E412.30674
G1 X73.065 Y52.026 E412.33771
G1 X69.014 Y47.974 E412.63706
G1 X68.421 Y47.974 E412.66802
G1 X72.472 Y52.026 E412.96737
G1 X71.880 Y52.026 E412.99833
G1 X67.828 Y47.974 E413.29768
G1 X67.236 Y47.974 E413.32865
G1 X71.287 Y52.026 E413.62800
G1 X70.695 Y52.026 E413.65896
G1 X66.643 Y47.974 E413.95831
G1 X66.050 Y47.974 E413.98927
G1 X70.102 Y52.026 E414.28862
G1 X69.509 Y52.026 E414.31959
G1 X65.458 Y47.974 E414.61894
G1 X64.865 Y47.974 E414.64990
G1 X68.917 Y52.026 E414.94925
G1 X68.324 Y52.026 E414.98021
G1 X64.272 Y47.974 E415.27956
G1 X63.680 Y47.974 E415.31053
G1 X67.731 Y52.026 E415.60988
G1 X67.139 Y52.026 E415.64084
G1 X63.087 Y47.974 E415.94019
G1 X62.494 Y47.974 E415.97116
G1 X66.546 Y52.026 E416.27051
G1 X65.953 Y52.026 E416.30147
G1 X61.902 Y47.974 E416.60082
G1 X61.309 Y47.974 E416.63178
G1 X65.361 Y52.026 E416.93113
G1 X64.768 Y52.026 E416.96210
G1 X60.716 Y47.974 E417.26145
G1 X60.124 Y47.974 E417.29241
G1 X64.175 Y52.026 E417.59176
G1 X63.583 Y52.026 E417.62272
G1 X59.531 Y47.974 E417.92207
G1 X58.938 Y47.974 E417.95304
G1 X62.990 Y52.026 E418.25239
G1 X62.397 Y52.026 E418.28335
G1 X58.346 Y47.974 E418.58270
G1 X57.753 Y47.974 E418.61366
G1 X61.805 Y52.026 E418.91301
G1 X61.212 Y52.026 E418.94398
G1 X57.160 Y47.974 E419.24333
G1 X56.568 Y47.974 E419.27429
G1 X60.619 Y52.026 E419.57364
G1 X60.027 Y52.026 E419.60460
G1 X55.975 Y47.974 E419.90395
G1 X55.382 Y47.974 E419.93492
G1 X59.434 Y52.026 E420.23427
G1 X58.841 Y52.026 E420.26523
G1 X54.790 Y47.974 E420.56458
G1 X54.197 Y47.974 E420.59555
G1 X58.249 Y52.026 E420.89490
G1 X57.656 Y52.026 E420.92586
G1 X53.604 Y47.974 E421.22521
G1 X53.012 Y47.974 E421.25617
G1 X57.063 Y52.026 E421.55552
G1 X56.471 Y52.026 E421.58649
G1 X52.419 Y47.974 E421.88584
G1 X51.827 Y47.974 E421.91680
G1 X55.878 Y52.026 E422.21615
G1 X55.285 Y52.026 E422.24711
G1 X51.234 Y47.974 E422.54646
G1 X50.641 Y47.974 E422.57743
G1 X54.693 Y52.026 E422.87678
G1 X54.100 Y52.026 E422.90774
G1 X50.049 Y47.974 E423.20709
G1 X49.456 Y47.974 E423.23805
G1 X53.507 Y52.026 E423.53740
G1 X52.915 Y52.026 E423.56837
G1 X48.863 Y47.974 E423.86772
G1 X48.271 Y47.974 E423.89868
G1 X52.322 Y52.026 E424.19803
G1 X52.026 Y52.322 E424.21993
G1 X47.974 Y48.271 E424.51928
G1 X47.974 Y48.863 E424.55024
G1 X52.026 Y52.915 E424.84959
G1 X52.026 Y53.507 E424.88055
G1 X47.974 Y49.456 E425.17990
G1 X47.974 Y50.049 E425.21087
G1 X52.026 Y54.100 E425.51022
G1 X52.026 Y54.693 E425.54118
G1 X47.974 Y50.641 E425.84053
G1 X47.974 Y51.234 E425.87149
G1 X52.026 Y55.285 E426.17084
G1 X52.026 Y55.878 E426.20181
G1 X47.974 Y51.827 E426.50116
G1 X47.974 Y52.419 E426.53212
G1 X52.026 Y56.471 E426.83147
G1 X52.026 Y57.063 E426.86243
