; generated by Slic3r 1.2.7-dev on 2015-05-17 at 20:38:46

; external perimeters extrusion width = 0.40mm
; perimeters extrusion width = 0.67mm
; infill extrusion width = 0.67mm
; solid infill extrusion width = 0.67mm
; top infill extrusion width = 0.67mm

M107
M104 S215 ; set temperature
G28 ; home all axes
G1 Z5 F5000 ; lift nozzle

M109 S215 ; wait for temperature to be reached
G21 ; set units to millimeters
G90 ; use absolute coordinates
M82 ; use absolute distances for extrusion
G92 E0
G1 Z0.400 F7800.000
G1 E-2.00000 F2400.00000
G92 E0
G1 X27.006 Y41.152 F7800.000
G1 E2.00000 F2400.00000
G1 X72.820 Y11.087 E8.50814 F1800.000
G1 X78.676 Y7.481 E9.32487
G1 X79.117 Y7.232 E9.38506
G1 X80.248 Y6.649 E9.53614
G1 X80.782 Y6.403 E9.60600
G1 X82.284 Y5.789 E9.79865
G1 X83.120 Y5.509 E9.90337
G1 X83.799 Y5.331 E9.98677
G1 X85.504 Y5.111 E10.19093
G1 X87.504 Y5.111 E10.42846
G1 X88.057 Y5.134 E10.49418
G1 X147.057 Y10.009 E17.52521 F1800.000
G1 X149.291 Y10.592 E17.79943
G1 X151.196 Y11.897 E18.07366
G1 X152.545 Y13.770 E18.34788
G1 X153.123 Y15.573 E18.57264
G1 X171.162 Y121.473 E31.33103
G1 X171.257 Y122.600 E31.46541
G1 X171.257 Y168.800 E36.95236
G1 X170.860 Y171.075 E37.22658
G1 X169.716 Y173.080 E37.50081
G1 X167.960 Y174.580 E37.77503
G1 X165.800 Y175.395 E38.04926
G1 X164.543 Y175.514 E38.19922
G1 X73.504 Y175.514 E49.01147
G1 X72.119 Y175.370 E49.17681
G1 X14.085 Y163.132 E56.22088
G1 X13.598 Y163.007 E56.28054
G1 X12.796 Y162.747 E56.38065
G1 X12.326 Y162.561 E56.44079
G1 X11.566 Y162.203 E56.54047
G1 X11.132 Y161.964 E56.59929
G1 X10.414 Y161.509 E56.70025
G1 X10.008 Y161.214 E56.75991
G1 X9.358 Y160.676 E56.86007
G1 X8.991 Y160.332 E56.91984
G1 X8.415 Y159.718 E57.01985
G1 X8.099 Y159.336 E57.07867
G1 X7.599 Y158.649 E57.17965
G1 X7.330 Y158.225 E57.23931
G1 X6.924 Y157.486 E57.33945
G1 X6.709 Y157.030 E57.39927
G1 X6.399 Y156.247 E57.49925
G1 X6.244 Y155.770 E57.55892
G1 X6.034 Y154.953 E57.65906
G1 X5.940 Y154.459 E57.71877
G1 X5.835 Y153.623 E57.81885
G1 X5.803 Y153.120 E57.87872
G1 X5.790 Y152.700 E57.92860
G1 X5.790 Y58.700 E69.09253
G1 X6.187 Y56.425 E69.36675
G1 X7.331 Y54.420 E69.64098
G1 X8.820 Y53.087 E69.87837
G1 X26.956 Y41.185 E72.45465
G1 E70.45465 F2400.00000
G92 E0
G1 X151.292 Y161.859 F7800.000
G1 E2.00000 F2400.00000
G1 X151.880 Y161.431 E2.08643 F1800.000
G1 X152.557 Y161.163 E2.17286
G1 X153.241 Y161.077 E2.25480 F1800.000
G1 X153.998 Y161.162 E2.34527
G1 X154.678 Y161.431 E2.43202
G1 X155.266 Y161.859 E2.51845
G1 X155.730 Y162.419 E2.60488
G1 X156.040 Y163.078 E2.69131
G1 X156.176 Y163.793 E2.77774
G1 X156.131 Y164.519 E2.86417
G1 X155.906 Y165.211 E2.95059
G1 X155.514 Y165.828 E3.03734
G1 X154.952 Y166.342 E3.12782
G1 X154.348 Y166.674 E3.20976
G1 X153.640 Y166.856 E3.29650
G1 X152.879 Y166.846 E3.38698
G1 X152.210 Y166.674 E3.46892
G1 X151.573 Y166.324 E3.55535
G1 X151.042 Y165.826 E3.64178
G1 X150.652 Y165.211 E3.72821
G1 X150.427 Y164.519 E3.81464
G1 X150.382 Y163.793 E3.90107
G1 X150.511 Y163.115 E3.98301
G1 X150.826 Y162.421 E4.07348
G1 X151.253 Y161.905 E4.15310
G1 X151.217 Y161.466 F7800.000
G1 X154.969 Y160.901 F7800.000
G1 X157.591 Y161.342 F7800.000
G1 X162.000 Y161.342 E4.67675 F1800.000
G1 X162.000 Y166.258 E5.26049
G1 X157.819 Y166.258 E5.75714
G1 X158.252 Y164.924 E5.92371
G1 X158.332 Y163.657 E6.07443
G1 X158.094 Y162.411 E6.22515
G1 X157.617 Y161.397 E6.35821
G1 X156.461 Y160.079 F7800.000
G1 X155.718 Y159.539 E6.46737 F1800.000
G1 X154.522 Y159.065 E6.62011
G1 X153.227 Y158.919 E6.77488
G1 X152.020 Y159.071 E6.91941
G1 X150.840 Y159.539 E7.07012
G1 X149.813 Y160.284 E7.22084
G1 X148.994 Y161.275 E7.37359
G1 X148.454 Y162.462 E7.52835
G1 X148.226 Y163.657 E7.67288
G1 X148.306 Y164.924 E7.82360
G1 X148.739 Y166.258 E7.99017
G1 X143.246 Y166.258 E8.64253
G1 X138.009 Y162.452 E9.41145
G1 X128.089 Y158.524 E10.67856
G1 X117.504 Y157.187 E11.94567
G1 X106.919 Y158.524 E13.21278
G1 X96.999 Y162.452 E14.47989
G1 X91.761 Y166.258 E15.24881
G1 X86.269 Y166.258 E15.90117
G1 X86.702 Y164.924 E16.06774
G1 X86.783 Y163.640 E16.22049
G1 X86.522 Y162.363 E16.37525
G1 X86.004 Y161.262 E16.51978
G1 X85.195 Y160.284 E16.67050
G1 X84.168 Y159.539 E16.82122
G1 X82.972 Y159.065 E16.97396
G1 X81.677 Y158.919 E17.12873
G1 X80.470 Y159.071 E17.27325
G1 X79.290 Y159.539 E17.42397
G1 X78.263 Y160.284 E17.57469
G1 X77.443 Y161.275 E17.72744
G1 X76.904 Y162.462 E17.88220
G1 X76.676 Y163.657 E18.02673
G1 X76.756 Y164.924 E18.17745
G1 X77.189 Y166.258 E18.34401
G1 X76.046 Y166.258 E18.47975
G1 X76.046 Y151.342 E20.25114
G1 X156.461 Y151.342 E29.80165
G1 X156.461 Y160.019 E30.83209
G1 X157.176 Y160.628 F7800.000
G1 X162.715 Y160.628 E31.48991 F1800.000
G1 X162.715 Y166.972 E32.24329
G1 X156.480 Y166.972 E32.98370
G1 X157.208 Y165.824 E33.14512
G1 X157.545 Y164.789 E33.27441
G1 X157.613 Y163.702 E33.40370
G1 X157.409 Y162.633 E33.53299
G1 X156.946 Y161.648 E33.66228
G1 X156.252 Y160.809 E33.79157
G1 X155.371 Y160.169 E33.92085
G1 X154.348 Y159.764 E34.05160
G1 X153.232 Y159.638 E34.18494
G1 X152.199 Y159.769 E34.30860
G1 X151.187 Y160.169 E34.43789
G1 X150.306 Y160.809 E34.56718
G1 X149.604 Y161.657 E34.69793
G1 X149.140 Y162.679 E34.83126
G1 X148.945 Y163.702 E34.95492
G1 X149.013 Y164.789 E35.08421
G1 X149.349 Y165.824 E35.21350
G1 X150.078 Y166.972 E35.37492
G1 X143.014 Y166.972 E36.21379
G1 X137.662 Y163.083 E36.99955
G1 X127.910 Y159.222 E38.24523
G1 X117.504 Y157.907 E39.49091
G1 X107.098 Y159.222 E40.73659
G1 X97.346 Y163.083 E41.98227
G1 X91.993 Y166.972 E42.76804
G1 X84.930 Y166.972 E43.60691
G1 X85.658 Y165.824 E43.76833
G1 X85.995 Y164.789 E43.89762
G1 X86.064 Y163.690 E44.02837
G1 X85.839 Y162.590 E44.16170
G1 X85.396 Y161.648 E44.28536
G1 X84.702 Y160.809 E44.41465
G1 X83.821 Y160.169 E44.54394
G1 X82.798 Y159.764 E44.67469
G1 X81.682 Y159.638 E44.80802
G1 X80.649 Y159.769 E44.93169
G1 X79.637 Y160.169 E45.06097
G1 X78.756 Y160.809 E45.19026
G1 X78.054 Y161.657 E45.32101
G1 X77.590 Y162.679 E45.45435
G1 X77.395 Y163.702 E45.57801
G1 X77.463 Y164.789 E45.70730
G1 X77.799 Y165.824 E45.83659
G1 X78.528 Y166.972 E45.99801
G1 X75.332 Y166.972 E46.37752
G1 X75.332 Y151.443 E48.22174
G1 X75.387 Y151.099 E48.26315
G1 X75.478 Y150.919 E48.28710
G1 X75.611 Y150.787 E48.30937
G1 X75.813 Y150.681 E48.33641
G1 X76.147 Y150.628 E48.37666
G1 X157.176 Y150.628 E58.00000
G1 X157.176 Y160.568 E59.18053
G1 X157.890 Y159.914 F7800.000
G1 X163.429 Y159.914 E59.83835 F1800.000
G1 X163.429 Y167.686 E60.76136
G1 X154.658 Y167.686 E61.80296
G1 X154.576 Y167.364 E61.84244
G1 X155.371 Y166.927 E61.95025
G1 X156.067 Y166.291 E62.06215
G1 X156.557 Y165.518 E62.17090
G1 X156.838 Y164.654 E62.27876
G1 X156.895 Y163.748 E62.38662
G1 X156.725 Y162.855 E62.49447
G1 X156.338 Y162.034 E62.60233
G1 X155.759 Y161.334 E62.71019
G1 X155.024 Y160.800 E62.81805
G1 X154.173 Y160.463 E62.92680
G1 X153.237 Y160.357 E63.03870
G1 X152.378 Y160.466 E63.14151
G1 X151.534 Y160.800 E63.24936
G1 X150.799 Y161.334 E63.35722
G1 X150.215 Y162.039 E63.46597
G1 X149.825 Y162.897 E63.57787
G1 X149.663 Y163.748 E63.68068
G1 X149.720 Y164.654 E63.78854
G1 X150.001 Y165.518 E63.89639
G1 X150.487 Y166.284 E64.00425
G1 X151.149 Y166.906 E64.11211
G1 X151.982 Y167.364 E64.22498
G1 X151.900 Y167.686 E64.26445
G1 X142.782 Y167.686 E65.34725
G1 X137.315 Y163.714 E66.14986
G1 X127.731 Y159.919 E67.37411
G1 X117.504 Y158.627 E68.59836
G1 X107.277 Y159.919 E69.82261
G1 X97.693 Y163.714 E71.04686
G1 X92.226 Y167.686 E71.84947
G1 X83.108 Y167.686 E72.93227
G1 X83.026 Y167.364 E72.97174
G1 X83.821 Y166.927 E73.07955
G1 X84.517 Y166.291 E73.19146
G1 X85.007 Y165.518 E73.30020
G1 X85.288 Y164.654 E73.40806
G1 X85.345 Y163.740 E73.51681
G1 X85.157 Y162.817 E73.62872
G1 X84.788 Y162.034 E73.73152
G1 X84.209 Y161.334 E73.83938
G1 X83.474 Y160.800 E73.94724
G1 X82.623 Y160.463 E74.05598
G1 X81.687 Y160.357 E74.16789
G1 X80.828 Y160.466 E74.27069
G1 X79.984 Y160.800 E74.37855
G1 X79.249 Y161.334 E74.48641
G1 X78.665 Y162.039 E74.59516
G1 X78.275 Y162.897 E74.70706
G1 X78.113 Y163.748 E74.80987
G1 X78.170 Y164.654 E74.91772
G1 X78.451 Y165.518 E75.02558
G1 X78.937 Y166.284 E75.13344
G1 X79.599 Y166.906 E75.24130
G1 X80.432 Y167.364 E75.35417
G1 X80.350 Y167.686 E75.39364
G1 X74.618 Y167.686 E76.07433
G1 X74.618 Y151.387 E78.01002
G1 X74.699 Y150.876 E78.07157
G1 X74.893 Y150.494 E78.12240
G1 X75.183 Y150.205 E78.17105
G1 X75.585 Y149.994 E78.22499
G1 X76.091 Y149.914 E78.28582
G1 X157.890 Y149.914 E88.00063
G1 X157.890 Y159.854 E89.18115
G1 X91.797 Y158.001 F7800.000
G1 X85.230 Y163.755 F7800.000
G1 X84.627 Y163.790 F7800.000
G1 X84.581 Y164.519 E89.26790 F1800.000
G1 X84.356 Y165.211 E89.35433
G1 X83.964 Y165.828 E89.44108
G1 X83.402 Y166.342 E89.53155
G1 X82.798 Y166.674 E89.61349
G1 X82.090 Y166.856 E89.70024
G1 X81.328 Y166.846 E89.79072
G1 X80.660 Y166.674 E89.87266
G1 X80.023 Y166.324 E89.95909
G1 X79.492 Y165.826 E90.04552
G1 X79.102 Y165.211 E90.13195
G1 X78.877 Y164.519 E90.21837
G1 X78.832 Y163.793 E90.30480
G1 X78.961 Y163.115 E90.38675
G1 X79.276 Y162.421 E90.47722
G1 X79.742 Y161.859 E90.56397
G1 X80.330 Y161.431 E90.65040
G1 X81.007 Y161.163 E90.73682
G1 X81.691 Y161.077 E90.81877 F1800.000
G1 X82.448 Y161.162 E90.90924
G1 X83.128 Y161.431 E90.99599
G1 X83.716 Y161.859 E91.08242
G1 X84.180 Y162.419 E91.16885
G1 X84.474 Y163.044 E91.25079
G1 X84.615 Y163.731 E91.33414
G1 X84.978 Y163.981 F7800.000
G1 X85.230 Y163.755 F7800.000
G1 X129.654 Y155.101 F7800.000
G1 X158.004 Y159.800 F7800.000
G1 X158.604 Y159.200 F7800.000
G1 X164.143 Y159.200 E91.99196 F1800.000
G1 X164.143 Y168.400 E93.08460
G1 X142.550 Y168.400 E95.64903
G1 X136.968 Y164.344 E96.46848
G1 X127.552 Y160.616 E97.67131
G1 X117.504 Y159.347 E98.87412
G1 X107.456 Y160.616 E100.07695
G1 X98.040 Y164.344 E101.27977
G1 X92.458 Y168.400 E102.09922
G1 X73.904 Y168.400 E104.30274
G1 X73.904 Y151.331 E106.32990
G1 X74.011 Y150.652 E106.41157
G1 X74.309 Y150.069 E106.48930
G1 X74.755 Y149.622 E106.56432
G1 X75.358 Y149.307 E106.64515
G1 X76.035 Y149.200 E106.72656
G1 X158.604 Y149.200 E116.53284
G1 X158.604 Y159.140 E117.71337
G1 X158.604 Y159.600 F7800.000
G1 X161.578 Y162.108 F7800.000
G1 X161.235 Y161.765 E117.77513 F1800.000
G1 X160.152 Y161.765 E117.91299
G1 X161.578 Y163.191 E118.16973
G1 X161.578 Y164.274 E118.30759
G1 X159.069 Y161.765 E118.75930
G1 X158.538 Y162.317 E118.85680
G1 X161.578 Y165.356 E119.40418
G1 X160.973 Y165.835 E119.50232
G1 X158.749 Y163.610 E119.90289
G1 X158.685 Y164.629 E120.03285
G1 X159.891 Y165.835 E120.24998
G1 X158.808 Y165.835 E120.38784
G1 X158.469 Y165.496 E120.44886
G1 X156.039 Y152.108 F7800.000
G1 X155.696 Y151.765 E120.50648 F1800.000
G1 X154.686 Y151.765 E120.62648
G1 X156.039 Y153.118 E120.85381
G1 X156.039 Y154.128 E120.97381
G1 X153.675 Y151.765 E121.37084
G1 X152.665 Y151.765 E121.49084
G1 X156.039 Y155.139 E122.05758
G1 X156.039 Y156.149 E122.17758
G1 X151.655 Y151.765 E122.91402
G1 X150.645 Y151.765 E123.03402
G1 X156.039 Y157.159 E123.94017
G1 X156.039 Y158.169 E124.06017
G1 X149.635 Y151.765 E125.13602
G1 X148.625 Y151.765 E125.25602
G1 X155.973 Y159.114 E126.49052
G1 X154.464 Y158.615 E126.67924
G1 X147.614 Y151.765 E127.83001
G1 X146.604 Y151.765 E127.95001
G1 X153.336 Y158.497 E129.08094
G1 X152.439 Y158.610 E129.18832
G1 X145.594 Y151.765 E130.33828
G1 X144.584 Y151.765 E130.45828
G1 X151.636 Y158.817 E131.64302
G1 X150.912 Y159.104 E131.73547
G1 X143.574 Y151.765 E132.96834
G1 X142.563 Y151.765 E133.08834
G1 X150.289 Y159.491 E134.38620
G1 X149.704 Y159.916 E134.47211
G1 X141.553 Y151.765 E135.84138
G1 X140.543 Y151.765 E135.96138
G1 X149.217 Y160.439 E137.41857
G1 X148.760 Y160.992 E137.50380
G1 X139.533 Y151.765 E139.05386
G1 X138.523 Y151.765 E139.17386
G1 X148.411 Y161.654 E140.83508
G1 X148.096 Y162.348 E140.92571
G1 X137.513 Y151.765 E142.70360
G1 X136.502 Y151.765 E142.82360
G1 X147.914 Y163.177 E144.74067
G1 X147.820 Y164.093 E144.85014
G1 X135.492 Y151.765 E146.92122
G1 X134.482 Y151.765 E147.04122
G1 X147.888 Y165.171 E149.29340
G1 X147.542 Y165.835 E149.38233
G1 X133.472 Y151.765 E151.74597
G1 X132.462 Y151.765 E151.86597
G1 X146.531 Y165.835 E154.22961
G1 X145.521 Y165.835 E154.34961
G1 X131.451 Y151.765 E156.71325
G1 X130.441 Y151.765 E156.83325
G1 X144.511 Y165.835 E159.19690
G1 X143.278 Y165.612 E159.34569
G1 X129.431 Y151.765 E161.67196
G1 X128.421 Y151.765 E161.79196
G1 X139.584 Y162.928 E163.66734
G1 X137.285 Y161.640 F7800.000
G1 X127.411 Y151.765 E165.32620 F1800.000
G1 X126.400 Y151.765 E165.44620
G1 X135.613 Y160.977 E166.99382
G1 X133.941 Y160.315 F7800.000
G1 X125.390 Y151.765 E168.43021 F1800.000
G1 X124.380 Y151.765 E168.55021
G1 X132.268 Y159.653 E169.87537
G1 X130.596 Y158.991 F7800.000
G1 X123.370 Y151.765 E171.08930 F1800.000
G1 X122.360 Y151.765 E171.20930
G1 X128.924 Y158.329 E172.31200
G1 X127.601 Y158.017 E172.47345
G1 X121.350 Y151.765 E173.52365
G1 X120.339 Y151.765 E173.64365
G1 X126.445 Y157.870 E174.66931
G1 X125.288 Y157.724 E174.80776
G1 X119.329 Y151.765 E175.80888
G1 X118.319 Y151.765 E175.92888
G1 X124.132 Y157.578 E176.90546
G1 X122.976 Y157.432 E177.04390
G1 X117.309 Y151.765 E177.99595
G1 X116.299 Y151.765 E178.11595
G1 X121.820 Y157.286 E179.04346
G1 X120.663 Y157.140 E179.18190
G1 X115.288 Y151.765 E180.08487
G1 X114.278 Y151.765 E180.20487
G1 X119.507 Y156.994 E181.08330
G1 X118.351 Y156.848 E181.22174
G1 X113.268 Y151.765 E182.07563
G1 X112.258 Y151.765 E182.19563
G1 X117.298 Y156.805 E183.04234
G1 X116.401 Y156.919 E183.14973
G1 X111.248 Y151.765 E184.01548
G1 X110.238 Y151.765 E184.13548
G1 X115.504 Y157.032 E185.02027
G1 X114.607 Y157.145 E185.12765
G1 X109.227 Y151.765 E186.03147
G1 X108.217 Y151.765 E186.15147
G1 X113.710 Y157.258 E187.07433
G1 X112.814 Y157.372 E187.18171
G1 X107.207 Y151.765 E188.12360
G1 X106.197 Y151.765 E188.24360
G1 X111.917 Y157.485 E189.20452
G1 X111.020 Y157.598 E189.31191
G1 X105.187 Y151.765 E190.29186
G1 X104.176 Y151.765 E190.41186
G1 X110.123 Y157.712 E191.41085
G1 X109.226 Y157.825 E191.51824
G1 X103.166 Y151.765 E192.53626
G1 X102.156 Y151.765 E192.65626
G1 X108.329 Y157.938 E193.69332
G1 X107.432 Y158.052 E193.80071
G1 X101.146 Y151.765 E194.85680
G1 X100.136 Y151.765 E194.97680
G1 X106.611 Y158.240 E196.06462
G1 X105.887 Y158.527 E196.15708
G1 X99.125 Y151.765 E197.29303
G1 X98.115 Y151.765 E197.41303
G1 X105.164 Y158.813 E198.59711
G1 X104.440 Y159.100 E198.68957
G1 X97.105 Y151.765 E199.92179
G1 X96.095 Y151.765 E200.04179
G1 X103.716 Y159.387 E201.32215
G1 X102.993 Y159.673 E201.41460
G1 X95.085 Y151.765 E202.74309
G1 X94.075 Y151.765 E202.86309
G1 X102.269 Y159.960 E204.23971
G1 X101.545 Y160.246 E204.33217
G1 X93.064 Y151.765 E205.75692
G1 X92.054 Y151.765 E205.87692
G1 X100.822 Y160.533 E207.34981
G1 X100.098 Y160.819 E207.44227
G1 X91.044 Y151.765 E208.96329
G1 X90.034 Y151.765 E209.08329
G1 X99.374 Y161.106 E210.65245
G1 X98.651 Y161.392 E210.74490
G1 X89.024 Y151.765 E212.36219
G1 X88.013 Y151.765 E212.48219
G1 X97.927 Y161.679 E214.14762
G1 X97.203 Y161.965 E214.24008
G1 X87.003 Y151.765 E215.95363
G1 X85.993 Y151.765 E216.07363
G1 X96.555 Y162.327 E217.84794
G1 X95.970 Y162.752 E217.93385
G1 X84.983 Y151.765 E219.77958
G1 X83.973 Y151.765 E219.89958
G1 X95.385 Y163.177 E221.81671
G1 X94.800 Y163.602 E221.90262
G1 X82.963 Y151.765 E223.89118
G1 X81.952 Y151.765 E224.01118
G1 X94.214 Y164.027 E226.07114
G1 X93.629 Y164.452 E226.15705
G1 X80.942 Y151.765 E228.28843
G1 X79.932 Y151.765 E228.40843
G1 X93.044 Y164.877 E230.61122
G1 X92.459 Y165.302 E230.69713
G1 X78.922 Y151.765 E232.97133
G1 X77.912 Y151.765 E233.09133
G1 X91.874 Y165.728 E235.43695
G1 X90.971 Y165.835 E235.54496
G1 X86.699 Y161.563 E236.26259
G1 X87.115 Y162.989 E236.43902
G1 X89.961 Y165.835 E236.91711
G1 X88.951 Y165.835 E237.03711
G1 X87.171 Y164.055 E237.33613
G1 X87.086 Y164.981 E237.44655
G1 X87.941 Y165.835 E237.59005
G1 X84.136 Y159.000 F7800.000
G1 X76.901 Y151.765 E238.80548 F1800.000
G1 X76.469 Y152.343 E238.89121
G1 X82.719 Y158.593 E239.94120
G1 X81.632 Y158.516 E240.07063
G1 X76.469 Y153.353 E240.93804
G1 X76.469 Y154.363 E241.05804
