; generated by Slic3r 1.2.7-dev on 2015-05-17 at 04:15:58

; external perimeters extrusion width = 0.40mm
; perimeters extrusion width = 0.56mm
; infill extrusion width = 0.56mm
; solid infill extrusion width = 0.56mm
; top infill extrusion width = 0.56mm

M107
M104 S215 ; set temperature
G28 ; home all axes
G1 Z5 F5000 ; lift nozzle

M109 S215 ; wait for temperature to be reached
G21 ; set units to millimeters
G90 ; use absolute coordinates
M82 ; use absolute distances for extrusion
G92 E0
G1 Z0.400 F7800.000
G1 E-2.00000 F2400.00000
G92 E0
G1 X76.977 Y65.870 F7800.000
G1 E2.00000 F2400.00000
G1 X78.733 Y64.370 E2.27422 F1800.000
G1 X80.893 Y63.555 E2.54845
G1 X82.150 Y63.436 E2.69842
G1 X97.850 Y63.436 E4.56303
G1 X100.125 Y63.833 E4.83725
G1 X102.130 Y64.977 E5.11148 F1800.000
G1 X103.630 Y66.733 E5.38570
G1 X104.445 Y68.893 E5.65993
G1 X104.564 Y70.150 E5.80990
G1 X104.564 Y109.850 E10.52487
G1 X104.167 Y112.125 E10.79910
G1 X103.023 Y114.130 E11.07332
G1 X101.267 Y115.630 E11.34755
G1 X99.107 Y116.445 E11.62177
G1 X97.850 Y116.564 E11.77174
G1 X82.150 Y116.564 E13.63635
G1 X79.875 Y116.167 E13.91058
G1 X77.870 Y115.023 E14.18480
G1 X76.370 Y113.267 E14.45903
G1 X75.555 Y111.107 E14.73325
G1 X75.436 Y109.850 E14.88322
G1 X75.436 Y70.150 E19.59820
G1 X75.833 Y67.875 E19.87242
G1 X76.947 Y65.922 E20.13952
G1 E18.13952 F2400.00000
G92 E0
G1 X96.750 Y108.750 F7800.000
G1 E2.00000 F2400.00000
G1 X83.250 Y108.750 E3.60333 F1800.000
G1 X83.250 Y71.250 E8.05702
G1 X96.750 Y71.250 E9.66035
G1 X96.750 Y108.690 E14.10692
G1 X96.750 Y109.150 F7800.000
G1 X97.450 Y109.450 F7800.000
G1 X82.550 Y109.450 E15.87652 F1800.000
G1 X82.550 Y70.550 E20.49649
G1 X97.450 Y70.550 E22.26609
G1 X97.450 Y109.390 E26.87893
G1 X97.104 Y109.250 F7800.000
G1 E24.87893 F2400.00000
G92 E0
G1 X97.850 Y109.850 F7800.000
G1 X97.850 Y109.850 F7800.000
G1 X87.276 Y102.000 F7800.000
G1 E2.00000 F2400.00000
G1 X87.309 Y101.574 E2.05077 F1800.000
G1 X87.423 Y101.123 E2.10592
G1 X87.573 Y100.763 E2.15228
G1 X87.776 Y100.430 E2.19863
G1 X88.065 Y100.083 E2.25222
G1 X88.400 Y99.795 E2.30466
G1 X88.797 Y99.558 E2.35969
G1 X89.158 Y99.409 E2.40604
G1 X89.537 Y99.317 E2.45239
G1 X90.001 Y99.276 E2.50766
G1 X90.426 Y99.309 E2.55831
G1 X90.876 Y99.423 E2.61346
G1 X91.237 Y99.573 E2.65981
G1 X91.570 Y99.776 E2.70616
G1 X91.916 Y100.065 E2.75973
G1 X92.205 Y100.400 E2.81220
G1 X92.442 Y100.797 E2.86722
G1 X92.591 Y101.158 E2.91357
G1 X92.682 Y101.536 E2.95968
G1 X92.724 Y101.987 E3.01357
G1 X92.691 Y102.427 E3.06595
G1 X92.577 Y102.877 E3.12098
G1 X92.427 Y103.237 E3.16734
G1 X92.224 Y103.570 E3.21369
G1 X91.926 Y103.926 E3.26884
G1 X91.570 Y104.224 E3.32399
G1 X91.237 Y104.427 E3.37034
G1 X90.876 Y104.577 E3.41670
G1 X90.426 Y104.691 E3.47184
G1 X90.000 Y104.724 E3.52262
G1 X89.574 Y104.691 E3.57339
G1 X89.124 Y104.577 E3.62854
G1 X88.763 Y104.427 E3.67489
G1 X88.430 Y104.224 E3.72125
G1 X88.074 Y103.926 E3.77640
G1 X87.776 Y103.570 E3.83155
G1 X87.573 Y103.237 E3.87790
G1 X87.423 Y102.877 E3.92425
G1 X87.309 Y102.426 E3.97940
G1 X87.276 Y102.000 E4.03017
G1 E2.03017 F2400.00000
G92 E0
G1 X82.150 Y109.850 F7800.000
G1 X82.150 Y109.850 F7800.000
G1 X87.278 Y93.963 F7800.000
G1 E2.00000 F2400.00000
G1 X87.309 Y93.574 E2.04635 F1800.000
G1 X87.400 Y93.194 E2.09270
G1 X87.558 Y92.797 E2.14344
G1 X87.796 Y92.399 E2.19858
G1 X88.063 Y92.086 E2.24742
G1 X88.400 Y91.795 E2.30025
G1 X88.797 Y91.558 E2.35526
G1 X89.158 Y91.409 E2.40161
G1 X89.537 Y91.317 E2.44796
G1 X90.000 Y91.276 E2.50311
G1 X90.409 Y91.307 E2.55186
G1 X90.877 Y91.423 E2.60901
G1 X91.237 Y91.573 E2.65536
G1 X91.559 Y91.769 E2.70024
G1 X91.914 Y92.062 E2.75488
G1 X92.205 Y92.400 E2.80776
G1 X92.442 Y92.797 E2.86275
G1 X92.591 Y93.158 E2.90911
G1 X92.683 Y93.537 E2.95546
G1 X92.724 Y94.000 E3.01061
G1 X92.691 Y94.426 E3.06138
G1 X92.573 Y94.887 E3.11787
G1 X92.427 Y95.237 E3.16287
G1 X92.224 Y95.570 E3.20922
G1 X91.926 Y95.926 E3.26437
G1 X91.570 Y96.224 E3.31953
G1 X91.237 Y96.427 E3.36588
G1 X90.877 Y96.577 E3.41223
G1 X90.426 Y96.691 E3.46738
G1 X90.000 Y96.724 E3.51815
G1 X89.574 Y96.691 E3.56892
G1 X89.113 Y96.573 E3.62537
G1 X88.751 Y96.420 E3.67210
G1 X88.430 Y96.224 E3.71675
G1 X88.074 Y95.926 E3.77190
G1 X87.770 Y95.560 E3.82839
G1 X87.573 Y95.237 E3.87339
G1 X87.423 Y94.877 E3.91974
G1 X87.309 Y94.426 E3.97490
G1 X87.278 Y93.963 E4.03005
G1 E2.03005 F2400.00000
G92 E0
G1 X82.150 Y70.150 F7800.000
G1 X82.150 Y70.150 F7800.000
G1 X87.278 Y85.963 F7800.000
G1 E2.00000 F2400.00000
G1 X87.309 Y85.574 E2.04635 F1800.000
G1 X87.400 Y85.194 E2.09270
G1 X87.558 Y84.797 E2.14344
G1 X87.796 Y84.399 E2.19859
G1 X88.059 Y84.090 E2.24682
G1 X88.400 Y83.795 E2.30030
G1 X88.797 Y83.558 E2.35526
G1 X89.158 Y83.409 E2.40161
G1 X89.537 Y83.317 E2.44797
G1 X90.000 Y83.277 E2.50311
G1 X90.404 Y83.307 E2.55119
G1 X90.877 Y83.423 E2.60900
G1 X91.237 Y83.573 E2.65535
G1 X91.570 Y83.776 E2.70170
G1 X91.910 Y84.059 E2.75424
G1 X92.205 Y84.400 E2.80781
G1 X92.442 Y84.797 E2.86276
G1 X92.591 Y85.158 E2.90911
G1 X92.683 Y85.537 E2.95546
G1 X92.724 Y86.000 E3.01061
G1 X92.691 Y86.426 E3.06138
G1 X92.577 Y86.877 E3.11654
G1 X92.427 Y87.237 E3.16289
G1 X92.224 Y87.570 E3.20924
G1 X91.926 Y87.926 E3.26439
G1 X91.570 Y88.224 E3.31954
G1 X91.238 Y88.427 E3.36573
G1 X90.905 Y88.566 E3.40859
G1 X90.426 Y88.691 E3.46738
G1 X90.000 Y88.724 E3.51815
G1 X89.574 Y88.691 E3.56892
G1 X89.123 Y88.577 E3.62407
G1 X88.763 Y88.427 E3.67042
G1 X88.430 Y88.224 E3.71677
G1 X88.074 Y87.926 E3.77192
G1 X87.776 Y87.570 E3.82708
G1 X87.573 Y87.237 E3.87343
G1 X87.432 Y86.905 E3.91626
G1 X87.309 Y86.426 E3.97493
G1 X87.278 Y85.963 E4.03008
G1 E2.03008 F2400.00000
G92 E0
G1 X82.150 Y70.150 F7800.000
G1 X82.150 Y70.150 F7800.000
G1 X87.278 Y77.963 F7800.000
G1 E2.00000 F2400.00000
G1 X87.309 Y77.574 E2.04635 F1800.000
G1 X87.400 Y77.194 E2.09270
G1 X87.558 Y76.797 E2.14344
G1 X87.796 Y76.399 E2.19859
G1 X88.074 Y76.074 E2.24936
G1 X88.430 Y75.776 E2.30451
G1 X88.763 Y75.573 E2.35086
G1 X89.124 Y75.423 E2.39722
G1 X89.574 Y75.309 E2.45237
G1 X90.000 Y75.277 E2.50313
G1 X90.392 Y75.306 E2.54985
G1 X90.876 Y75.423 E2.60900
G1 X91.237 Y75.573 E2.65535
G1 X91.570 Y75.776 E2.70171
G1 X91.926 Y76.074 E2.75686
G1 X92.224 Y76.430 E2.81201
G1 X92.427 Y76.763 E2.85836
G1 X92.577 Y77.123 E2.90471
G1 X92.691 Y77.574 E2.95986
G1 X92.724 Y78.000 E3.01063
G1 X92.691 Y78.426 E3.06141
G1 X92.577 Y78.877 E3.11656
G1 X92.427 Y79.237 E3.16291
G1 X92.224 Y79.570 E3.20926
G1 X91.926 Y79.926 E3.26441
G1 X91.601 Y80.204 E3.31518
G1 X91.203 Y80.442 E3.37034
G1 X90.842 Y80.591 E3.41669
G1 X90.463 Y80.683 E3.46304
G1 X90.000 Y80.725 E3.51820
G1 X89.537 Y80.683 E3.57336
G1 X89.158 Y80.591 E3.61971
G1 X88.797 Y80.442 E3.66606
G1 X88.399 Y80.204 E3.72121
G1 X88.074 Y79.926 E3.77198
G1 X87.776 Y79.570 E3.82714
G1 X87.573 Y79.237 E3.87349
G1 X87.423 Y78.877 E3.91984
G1 X87.309 Y78.426 E3.97499
G1 X87.278 Y77.963 E4.03014
M104 S210 ; set temperature
G1 Z0.650 F7800.000
G1 E2.03014 F2400.00000
G92 E0
G1 X96.550 Y108.550 F7800.000
G1 E2.00000 F2400.00000
G1 X83.450 Y108.550 E2.47158 F1200.000
G1 X83.450 Y71.450 E3.80714
G1 X96.550 Y71.450 E4.27873
G1 X96.550 Y108.490 E5.61212
G1 X96.550 Y108.950 F7800.000
G1 X97.650 Y109.650 F7800.000
G1 X82.350 Y109.650 E6.16291 F1200.000
G1 X82.350 Y70.350 E7.57766
G1 X97.650 Y70.350 E8.12844
G1 X97.650 Y109.590 E9.54104
G1 X97.304 Y109.450 F7800.000
G1 E7.54104 F2400.00000
G92 E0
G1 X97.850 Y109.850 F7800.000
G1 X97.850 Y109.850 F7800.000
G1 X91.733 Y103.733 F7800.000
G1 E2.00000 F2400.00000
G1 X91.440 Y103.983 E2.01384 F900.000
G1 X91.112 Y104.184 E2.02773
G1 X90.732 Y104.337 E2.04247
G1 X90.383 Y104.420 E2.05536
G1 X90.000 Y104.451 E2.06921
G1 X89.617 Y104.420 E2.08305
G1 X89.243 Y104.331 E2.09689
G1 X88.887 Y104.184 E2.11074
G1 X88.560 Y103.983 E2.12458
G1 X88.267 Y103.733 E2.13842
G1 X88.017 Y103.440 E2.15227
G1 X87.816 Y103.113 E2.16611
G1 X87.669 Y102.757 E2.17995
G1 X87.580 Y102.383 E2.19379
G1 X87.549 Y102.000 E2.20764
G1 X87.580 Y101.617 E2.22148
G1 X87.669 Y101.243 E2.23533
G1 X87.816 Y100.887 E2.24917
G1 X88.017 Y100.560 E2.26301
G1 X88.267 Y100.267 E2.27686
G1 X88.560 Y100.017 E2.29070
G1 X88.887 Y99.816 E2.30454
G1 X89.243 Y99.669 E2.31838
G1 X89.617 Y99.580 E2.33223
G1 X89.973 Y99.552 E2.34508 F900.000
G1 X90.382 Y99.579 E2.35986
G1 X90.757 Y99.669 E2.37375
G1 X91.113 Y99.816 E2.38759
G1 X91.417 Y100.003 E2.40045
G1 X91.732 Y100.266 E2.41523
G1 X91.983 Y100.560 E2.42911
G1 X92.184 Y100.887 E2.44295
G1 X92.331 Y101.243 E2.45680
G1 X92.420 Y101.617 E2.47064
G1 X92.451 Y102.000 E2.48448
G1 X92.420 Y102.384 E2.49836
G1 X92.321 Y102.782 E2.51311
G1 X92.184 Y103.113 E2.52600
G1 X91.983 Y103.440 E2.53984
G1 X91.772 Y103.687 E2.55153
G1 X91.823 Y104.107 F7800.000
G1 X92.149 Y104.088 F7800.000
G1 X91.763 Y104.427 E2.57000 F900.000
G1 X91.362 Y104.672 E2.58695
G1 X90.927 Y104.853 E2.60389
G1 X90.469 Y104.962 E2.62083
G1 X90.000 Y104.999 E2.63778
G1 X89.531 Y104.962 E2.65472
G1 X89.073 Y104.853 E2.67166
G1 X88.638 Y104.672 E2.68861
G1 X88.237 Y104.427 E2.70555
G1 X87.879 Y104.121 E2.72249
G1 X87.573 Y103.763 E2.73944
G1 X87.328 Y103.362 E2.75638
G1 X87.147 Y102.927 E2.77332
G1 X87.038 Y102.469 E2.79026
G1 X87.001 Y102.000 E2.80721
G1 X87.038 Y101.531 E2.82415
G1 X87.147 Y101.073 E2.84110
G1 X87.328 Y100.638 E2.85804
G1 X87.573 Y100.237 E2.87498
G1 X87.879 Y99.879 E2.89192
G1 X88.237 Y99.573 E2.90887
G1 X88.638 Y99.328 E2.92581
G1 X89.073 Y99.147 E2.94275
G1 X89.531 Y99.038 E2.95970
G1 X90.000 Y99.001 E2.97664
G1 X90.432 Y99.035 E2.99224
G1 X90.928 Y99.148 E3.01055 F900.000
G1 X91.362 Y99.328 E3.02745
G1 X91.763 Y99.573 E3.04440
G1 X92.121 Y99.879 E3.06134
G1 X92.427 Y100.237 E3.07828
G1 X92.672 Y100.638 E3.09522
G1 X92.853 Y101.073 E3.11217
G1 X92.962 Y101.531 E3.12911
G1 X92.999 Y102.000 E3.14605
G1 X92.962 Y102.469 E3.16300
G1 X92.853 Y102.927 E3.17994
G1 X92.672 Y103.362 E3.19688
G1 X92.427 Y103.763 E3.21383
G1 X92.188 Y104.043 E3.22706
G1 X91.764 Y103.978 F7800.000
G1 E1.22706 F2400.00000
G92 E0
G1 X97.850 Y109.850 F7800.000
G1 X97.850 Y109.850 F7800.000
G1 X90.383 Y96.420 F7800.000
G1 E2.00000 F2400.00000
G1 X90.000 Y96.451 E2.01384 F900.000
G1 X89.617 Y96.420 E2.02769
G1 X89.243 Y96.331 E2.04153
G1 X88.887 Y96.184 E2.05537
G1 X88.560 Y95.983 E2.06922
G1 X88.266 Y95.732 E2.08310
G1 X88.001 Y95.414 E2.09801
G1 X87.816 Y95.113 E2.11073
G1 X87.669 Y94.757 E2.12458
G1 X87.580 Y94.383 E2.13842
G1 X87.549 Y94.000 E2.15226
G1 X87.580 Y93.617 E2.16611
G1 X87.669 Y93.243 E2.17995
G1 X87.816 Y92.887 E2.19379
G1 X88.000 Y92.588 E2.20645
G1 X88.266 Y92.268 E2.22142
G1 X88.560 Y92.017 E2.23531
G1 X88.887 Y91.816 E2.24915
G1 X89.243 Y91.669 E2.26300
G1 X89.617 Y91.580 E2.27684
G1 X89.966 Y91.552 E2.28946 F900.000
G1 X90.382 Y91.579 E2.30447
G1 X90.757 Y91.669 E2.31836
G1 X91.113 Y91.816 E2.33220
G1 X91.440 Y92.017 E2.34604
G1 X91.733 Y92.267 E2.35989
G1 X91.983 Y92.560 E2.37373
G1 X92.184 Y92.887 E2.38757
G1 X92.331 Y93.243 E2.40142
G1 X92.420 Y93.617 E2.41526
G1 X92.451 Y94.000 E2.42910
G1 X92.420 Y94.383 E2.44295
G1 X92.331 Y94.757 E2.45679
G1 X92.184 Y95.113 E2.47063
G1 X91.983 Y95.440 E2.48448
G1 X91.732 Y95.734 E2.49836
G1 X91.415 Y95.998 E2.51324
G1 X91.113 Y96.184 E2.52599
G1 X90.757 Y96.331 E2.53984
G1 X90.442 Y96.406 E2.55152
G1 X90.236 Y96.776 F7800.000
G1 X90.426 Y96.966 F7800.000
G1 X90.000 Y96.999 E2.56691 F900.000
G1 X89.531 Y96.962 E2.58386
G1 X89.073 Y96.853 E2.60080
G1 X88.638 Y96.672 E2.61774
G1 X88.237 Y96.427 E2.63469
G1 X87.879 Y96.121 E2.65163
G1 X87.573 Y95.763 E2.66857
G1 X87.328 Y95.363 E2.68547
G1 X87.138 Y94.886 E2.70394
G1 X87.038 Y94.469 E2.71938
G1 X87.001 Y94.000 E2.73633
G1 X87.038 Y93.531 E2.75327
G1 X87.147 Y93.073 E2.77021
G1 X87.328 Y92.638 E2.78716
G1 X87.573 Y92.237 E2.80410
G1 X87.879 Y91.879 E2.82104
G1 X88.237 Y91.573 E2.83799
G1 X88.638 Y91.328 E2.85493
G1 X89.073 Y91.147 E2.87187
G1 X89.531 Y91.038 E2.88881
G1 X90.000 Y91.001 E2.90576
G1 X90.423 Y91.034 E2.92102
G1 X90.928 Y91.148 E2.93967 F900.000
G1 X91.362 Y91.328 E2.95657
G1 X91.763 Y91.573 E2.97351
G1 X92.086 Y91.849 E2.98881
G1 X92.427 Y92.238 E3.00743
G1 X92.672 Y92.638 E3.02432
G1 X92.853 Y93.073 E3.04126
G1 X92.962 Y93.531 E3.05821
G1 X92.999 Y94.000 E3.07515
G1 X92.962 Y94.469 E3.09209
G1 X92.853 Y94.926 E3.10899
G1 X92.651 Y95.396 E3.12741
G1 X92.427 Y95.763 E3.14291
G1 X92.121 Y96.121 E3.15985
G1 X91.763 Y96.427 E3.17679
G1 X91.362 Y96.672 E3.19374
G1 X90.927 Y96.853 E3.21068
G1 X90.486 Y96.958 E3.22701
G1 X90.184 Y96.647 F7800.000
G1 E1.22701 F2400.00000
G92 E0
G1 X97.850 Y109.850 F7800.000
G1 X97.850 Y109.850 F7800.000
G1 X90.000 Y88.451 F7800.000
G1 E2.00000 F2400.00000
G1 X89.617 Y88.420 E2.01384 F900.000
G1 X89.243 Y88.331 E2.02769
G1 X88.887 Y88.184 E2.04153
G1 X88.560 Y87.983 E2.05537
G1 X88.267 Y87.733 E2.06922
G1 X88.017 Y87.440 E2.08306
G1 X87.816 Y87.113 E2.09690
G1 X87.669 Y86.757 E2.11075
G1 X87.580 Y86.383 E2.12459
G1 X87.549 Y86.000 E2.13843
G1 X87.580 Y85.617 E2.15228
G1 X87.669 Y85.243 E2.16612
G1 X87.816 Y84.887 E2.17996
G1 X88.017 Y84.560 E2.19381
G1 X88.267 Y84.267 E2.20765
G1 X88.560 Y84.017 E2.22149
G1 X88.887 Y83.816 E2.23533
G1 X89.243 Y83.669 E2.24918
G1 X89.617 Y83.580 E2.26302
G1 X89.955 Y83.553 E2.27525 F900.000
G1 X90.382 Y83.579 E2.29063
G1 X90.757 Y83.669 E2.30453
G1 X91.113 Y83.816 E2.31838
G1 X91.440 Y84.017 E2.33222
G1 X91.733 Y84.267 E2.34606
G1 X91.983 Y84.560 E2.35991
G1 X92.184 Y84.887 E2.37375
G1 X92.331 Y85.243 E2.38759
G1 X92.420 Y85.617 E2.40144
G1 X92.451 Y86.000 E2.41528
G1 X92.420 Y86.385 E2.42918
G1 X92.315 Y86.794 E2.44438
G1 X92.184 Y87.113 E2.45680
G1 X91.983 Y87.440 E2.47064
G1 X91.732 Y87.734 E2.48454
G1 X91.408 Y88.003 E2.49969
G1 X91.113 Y88.184 E2.51215
G1 X90.757 Y88.331 E2.52600
G1 X90.383 Y88.420 E2.53984
G1 X90.060 Y88.446 E2.55152
G1 X89.799 Y88.778 F7800.000
G1 X90.043 Y88.996 F7800.000
G1 X89.531 Y88.962 E2.57000 F900.000
G1 X89.073 Y88.853 E2.58694
G1 X88.638 Y88.672 E2.60388
G1 X88.237 Y88.427 E2.62083
G1 X87.879 Y88.121 E2.63777
G1 X87.573 Y87.763 E2.65471
G1 X87.328 Y87.362 E2.67166
G1 X87.147 Y86.927 E2.68860
G1 X87.038 Y86.469 E2.70554
G1 X87.001 Y86.000 E2.72249
G1 X87.038 Y85.531 E2.73943
G1 X87.147 Y85.073 E2.75637
G1 X87.328 Y84.638 E2.77332
G1 X87.573 Y84.237 E2.79026
G1 X87.841 Y83.924 E2.80508
G1 X88.238 Y83.573 E2.82418
G1 X88.638 Y83.328 E2.84106
G1 X89.073 Y83.147 E2.85801
G1 X89.531 Y83.038 E2.87495
G1 X90.000 Y83.001 E2.89189
G1 X90.407 Y83.033 E2.90660
G1 X90.929 Y83.148 E2.92582 F900.000
G1 X91.362 Y83.328 E2.94270
G1 X91.763 Y83.573 E2.95964
G1 X92.075 Y83.840 E2.97440
G1 X92.427 Y84.238 E2.99357
G1 X92.672 Y84.638 E3.01045
G1 X92.853 Y85.073 E3.02739
G1 X92.962 Y85.531 E3.04433
G1 X92.999 Y86.000 E3.06127
G1 X92.962 Y86.469 E3.07822
G1 X92.853 Y86.927 E3.09516
G1 X92.672 Y87.362 E3.11210
G1 X92.427 Y87.763 E3.12905
G1 X92.121 Y88.121 E3.14599
G1 X91.763 Y88.427 E3.16293
G1 X91.362 Y88.672 E3.17988
G1 X90.927 Y88.853 E3.19682
G1 X90.469 Y88.962 E3.21376
G1 X90.103 Y88.991 E3.22700
G1 X89.849 Y88.646 F7800.000
G1 E1.22700 F2400.00000
G92 E0
G1 X97.850 Y70.150 F7800.000
G1 X97.850 Y70.150 F7800.000
G1 X90.000 Y80.451 F7800.000
G1 E2.00000 F2400.00000
G1 X89.617 Y80.420 E2.01384 F900.000
G1 X89.243 Y80.331 E2.02769
G1 X88.890 Y80.185 E2.04142
G1 X88.605 Y80.021 E2.05327
G1 X88.267 Y79.733 E2.06925
G1 X88.017 Y79.440 E2.08309
G1 X87.816 Y79.113 E2.09693
G1 X87.669 Y78.757 E2.11078
G1 X87.580 Y78.383 E2.12462
G1 X87.549 Y78.000 E2.13846
G1 X87.580 Y77.617 E2.15231
G1 X87.669 Y77.243 E2.16615
G1 X87.816 Y76.887 E2.17999
G1 X88.017 Y76.560 E2.19384
G1 X88.267 Y76.267 E2.20768
G1 X88.560 Y76.017 E2.22152
G1 X88.887 Y75.816 E2.23537
G1 X89.243 Y75.669 E2.24921
G1 X89.617 Y75.580 E2.26305
G1 X89.934 Y75.555 E2.27452 F900.000
G1 X90.381 Y75.579 E2.29063
G1 X90.757 Y75.669 E2.30456
G1 X91.113 Y75.816 E2.31840
G1 X91.440 Y76.017 E2.33225
G1 X91.733 Y76.267 E2.34609
G1 X91.983 Y76.560 E2.35993
G1 X92.184 Y76.887 E2.37377
G1 X92.331 Y77.243 E2.38762
G1 X92.420 Y77.617 E2.40146
G1 X92.451 Y78.000 E2.41530
G1 X92.420 Y78.383 E2.42915
G1 X92.331 Y78.757 E2.44299
