; generated by Slic3r 1.2.7-dev on 2015-05-16 at 19:56:42

; external perimeters extrusion width = 0.40mm
; perimeters extrusion width = 0.48mm
; infill extrusion width = 0.48mm
; solid infill extrusion width = 0.48mm
; top infill extrusion width = 0.48mm
; support material extrusion width = 0.40mm

M107
M104 S215 ; set temperature
G28 ; home all axes
G1 Z5 F5000 ; lift nozzle

M109 S215 ; wait for temperature to be reached
G21 ; set units to millimeters
G90 ; use absolute coordinates
M82 ; use absolute distances for extrusion
G92 E0
G1 Z0.400 F7800.000
G1 E-2.00000 F2400.00000
G92 E0
G1 X72.977 Y69.870 F7800.000
G1 E2.00000 F2400.00000
G1 X74.733 Y68.370 E2.27422 F1800.000
G1 X76.893 Y67.555 E2.54845
G1 X78.150 Y67.436 E2.69842
G1 X101.850 Y67.436 E5.51315
G1 X104.125 Y67.833 E5.78738
G1 X106.130 Y68.977 E6.06160 F1800.000
G1 X107.630 Y70.733 E6.33583
G1 X108.445 Y72.893 E6.61005
G1 X108.564 Y74.150 E6.76002
G1 X108.564 Y105.850 E10.52487
G1 X108.167 Y108.125 E10.79910
G1 X107.023 Y110.130 E11.07332
G1 X105.267 Y111.630 E11.34755
G1 X103.107 Y112.445 E11.62177
G1 X101.850 Y112.564 E11.77174
G1 X78.150 Y112.564 E14.58647
G1 X75.875 Y112.167 E14.86070
G1 X73.870 Y111.023 E15.13492
G1 X72.370 Y109.267 E15.40915
G1 X71.555 Y107.107 E15.68337
G1 X71.436 Y105.850 E15.83334
G1 X71.436 Y74.150 E19.59820
G1 X71.833 Y71.875 E19.87242
G1 X72.947 Y69.922 E20.13952
G1 E18.13952 F2400.00000
G92 E0
G1 X80.185 Y78.585 F7800.000
G1 E2.00000 F2400.00000
G1 X80.548 Y77.861 E2.04232 F1800.000
G1 X81.299 Y77.861 E2.08154
G1 X80.185 Y80.083 E2.21140
G1 X80.746 Y80.462 E2.24677
G1 X82.049 Y77.861 E2.39876
G1 X82.800 Y77.861 E2.43798
G1 X81.497 Y80.462 E2.58997
G1 X82.248 Y80.462 E2.62920
G1 X83.551 Y77.861 E2.78119
G1 X83.704 Y79.054 E2.84405
G1 X84.302 Y77.861 E2.91379
G1 X84.723 Y78.520 E2.95461
G1 X85.053 Y77.861 E2.99309
G1 X85.724 Y78.020 E3.02913
G1 X85.564 Y78.339 E3.04780
G1 X87.003 Y78.464 F7800.000
G1 X87.305 Y77.861 E3.08305 F1800.000
G1 X88.056 Y77.861 E3.12228
G1 X87.633 Y78.705 E3.17157
G1 X88.208 Y79.056 E3.20676
G1 X88.807 Y77.861 E3.27660
G1 X89.558 Y77.861 E3.31583
G1 X88.723 Y79.526 E3.41314
G1 X89.173 Y80.126 E3.45233
G1 X90.309 Y77.861 E3.58470
G1 X91.059 Y77.861 E3.62393
G1 X89.756 Y80.462 E3.77592
G1 X90.507 Y80.462 E3.81514
G1 X91.810 Y77.861 E3.96713
G1 X92.083 Y78.816 E4.01899
G1 X92.561 Y77.861 E4.07477
G1 X93.312 Y77.861 E4.11399
G1 X93.024 Y78.436 E4.14761
G1 X94.564 Y78.359 F7800.000
G1 X94.814 Y77.861 E4.17670 F1800.000
G1 X95.564 Y77.861 E4.21593
G1 X95.226 Y78.536 E4.25536
G1 X97.066 Y77.861 F7800.000
G1 X96.389 Y79.211 E4.33425 F1800.000
G1 X96.887 Y79.717 E4.37132
G1 X97.817 Y77.861 E4.47980
G1 X98.568 Y77.861 E4.51902
G1 X97.316 Y80.359 E4.66499
G1 X98.015 Y80.462 E4.70192
G1 X99.319 Y77.861 E4.85391
G1 X99.815 Y78.368 E4.89099
G1 X98.766 Y80.462 E5.01334
G1 X99.815 Y79.866 E5.07637
G1 X99.517 Y80.462 E5.11117
G1 E3.11117 F2400.00000
G92 E0
G1 X97.696 Y97.576 F7800.000
G1 E2.00000 F2400.00000
G1 X97.949 Y97.073 E2.02944 F1800.000
G1 X98.700 Y97.073 E2.06867
G1 X97.489 Y99.489 E2.20986
G1 X98.113 Y99.742 E2.24504
G1 X99.450 Y97.073 E2.40103
G1 X99.815 Y97.843 E2.44556
G1 X98.863 Y99.742 E2.55654
G1 X99.815 Y99.341 E2.61050
G1 X99.614 Y99.742 E2.63394
G1 E0.63394 F2400.00000
G92 E0
G1 X94.380 Y99.698 F7800.000
G1 E2.00000 F2400.00000
G1 X95.588 Y97.289 E2.14080 F1800.000
G1 X94.945 Y97.073 E2.17622
G1 X93.619 Y99.720 E2.33090
G1 X93.000 Y99.456 E2.36604
G1 X94.195 Y97.073 E2.50529
G1 X93.444 Y97.073 E2.54452
G1 X92.516 Y98.924 E2.65273
G1 X92.306 Y97.845 E2.71019
G1 X92.693 Y97.073 E2.75531
G1 E0.75531 F2400.00000
G92 E0
G1 X87.051 Y99.341 F7800.000
G1 E2.00000 F2400.00000
G1 X87.703 Y98.040 E2.07600 F1800.000
G1 X87.436 Y97.075 E2.12832
G1 X86.099 Y99.742 E2.28419
G1 X85.391 Y99.657 E2.32145
G1 X86.686 Y97.073 E2.47245
G1 X85.935 Y97.073 E2.51168
G1 X84.817 Y99.305 E2.64213
G1 X84.390 Y98.658 E2.68262
G1 X85.185 Y97.073 E2.77527
G1 E0.77527 F2400.00000
G92 E0
G1 X82.345 Y99.742 F7800.000
G1 E2.00000 F2400.00000
G1 X82.552 Y99.329 E2.02414 F1800.000
G1 X82.297 Y98.340 E2.07751
G1 X81.594 Y99.742 E2.15947
G1 X80.843 Y99.742 E2.19869
G1 X82.181 Y97.073 E2.35469
G1 X81.431 Y97.073 E2.39392
G1 X80.185 Y99.558 E2.53916
G1 X80.185 Y98.060 E2.61742
G1 X80.680 Y97.073 E2.67512
M104 S210 ; set temperature
G1 Z0.700 F7800.000
G1 X80.981 Y97.518 F7800.000
G1 X80.586 Y97.518 E2.69168 F3600.000
G1 X80.586 Y99.296 E2.76611
G1 X82.071 Y99.296 E2.82830
G1 X81.912 Y98.647 E2.85627
G1 X81.861 Y98.000 E2.88345
G1 X81.899 Y97.518 E2.90368
G1 X80.981 Y97.518 E2.94211
G1 X82.273 Y97.288 F7800.000
G1 X82.298 Y97.183 E2.94665 F3600.000
G1 X80.250 Y97.183 E3.03239
G1 X80.250 Y99.632 E3.13493
G1 X82.574 Y99.632 E3.23219
G1 X82.384 Y99.175 E3.25288
G1 X82.245 Y98.595 E3.27788
G1 X82.198 Y98.000 E3.30285
G1 X82.250 Y97.347 E3.33026
G1 X82.273 Y97.288 E3.33293
G1 E1.33293 F2400.00000
G92 E0
G1 X85.794 Y97.183 F7800.000
G1 E2.00000 F2400.00000
G1 X84.574 Y97.183 E2.05109 F3600.000
G1 X84.433 Y97.491 E2.06528
G1 X84.372 Y97.742 E2.07610
G1 X84.352 Y98.000 E2.08693
G1 X84.372 Y98.258 E2.09775
G1 X84.433 Y98.509 E2.10858
G1 X84.531 Y98.748 E2.11941
G1 X84.667 Y98.969 E2.13023
G1 X84.835 Y99.165 E2.14106
G1 X85.031 Y99.333 E2.15188
G1 X85.252 Y99.469 E2.16271
G1 X85.491 Y99.567 E2.17354
G1 X85.796 Y99.632 E2.18658
G1 X86.258 Y99.628 E2.20593
G1 X86.509 Y99.567 E2.21676
G1 X86.748 Y99.469 E2.22758
G1 X86.969 Y99.333 E2.23841
G1 X87.165 Y99.165 E2.24924
G1 X87.333 Y98.969 E2.26006
G1 X87.469 Y98.748 E2.27089
G1 X87.567 Y98.509 E2.28172
G1 X87.628 Y98.258 E2.29254
G1 X87.648 Y98.000 E2.30337
G1 X87.628 Y97.742 E2.31419
G1 X87.567 Y97.491 E2.32502
G1 X87.426 Y97.183 E2.33921
G1 X85.794 Y97.183 E2.40752
G1 E0.40752 F2400.00000
G92 E0
G1 X93.794 Y97.183 F7800.000
G1 E2.00000 F2400.00000
G1 X92.574 Y97.183 E2.05109 F3600.000
G1 X92.433 Y97.491 E2.06528
G1 X92.372 Y97.742 E2.07610
G1 X92.352 Y98.000 E2.08693
G1 X92.372 Y98.258 E2.09775
G1 X92.433 Y98.509 E2.10858
G1 X92.531 Y98.748 E2.11941
G1 X92.667 Y98.969 E2.13023
G1 X92.835 Y99.165 E2.14106
G1 X93.031 Y99.333 E2.15188
G1 X93.252 Y99.469 E2.16271
G1 X93.491 Y99.567 E2.17354
G1 X93.796 Y99.632 E2.18659
G1 X94.258 Y99.628 E2.20593
G1 X94.509 Y99.567 E2.21676
G1 X94.748 Y99.469 E2.22758
G1 X94.969 Y99.333 E2.23841
G1 X95.165 Y99.165 E2.24924
G1 X95.333 Y98.969 E2.26006
G1 X95.469 Y98.748 E2.27089
G1 X95.567 Y98.509 E2.28172
G1 X95.628 Y98.258 E2.29254
G1 X95.648 Y98.000 E2.30337
G1 X95.628 Y97.742 E2.31419
G1 X95.567 Y97.491 E2.32502
G1 X95.426 Y97.183 E2.33921
G1 X93.794 Y97.183 E2.40752
G1 X93.582 Y99.242 F7800.000
G1 X92.717 Y97.744 E2.47995 F3600.000
G1 X92.689 Y98.000 E2.49075
G1 X92.705 Y98.205 E2.49936
G1 X92.753 Y98.405 E2.50798
G1 X92.831 Y98.595 E2.51659
G1 X92.939 Y98.771 E2.52521
G1 X93.073 Y98.927 E2.53382
G1 X93.229 Y99.061 E2.54244
G1 X93.405 Y99.169 E2.55105
G1 X93.582 Y99.242 E2.55910
G1 E0.55910 F2400.00000
G92 E0
G1 X98.031 Y97.183 F7800.000
G1 E2.00000 F2400.00000
G1 X97.702 Y97.183 E2.01378 F3600.000
G1 X97.755 Y97.405 E2.02336
G1 X97.802 Y98.000 E2.04834
G1 X97.755 Y98.595 E2.07331
G1 X97.616 Y99.175 E2.09828
G1 X97.537 Y99.365 E2.10692
G1 X97.701 Y99.632 E2.12002
G1 X99.750 Y99.632 E2.20580
G1 X99.750 Y97.183 E2.30833
G1 X98.031 Y97.183 E2.38030
G1 X99.304 Y97.518 F7800.000
G1 X98.853 Y97.518 E2.39919 F3600.000
G1 X98.007 Y98.984 E2.47004
G1 X97.929 Y99.296 E2.48352
G1 X99.414 Y99.296 E2.54571
G1 X99.414 Y97.518 E2.62014
G1 X99.304 Y97.518 E2.62475
G1 E0.62475 F2400.00000
G92 E0
G1 X98.429 Y78.307 F7800.000
G1 E2.00000 F2400.00000
G1 X97.867 Y78.307 E2.02354 F3600.000
G1 X98.854 Y80.016 E2.10617
G1 X99.414 Y80.016 E2.12964
G1 X99.414 Y78.307 E2.20120
G1 X98.429 Y78.307 E2.24246
G1 X98.429 Y77.971 F7800.000
G1 X96.300 Y77.971 E2.33157 F3600.000
G1 X96.300 Y78.980 E2.37381
G1 X96.688 Y79.312 E2.39519
G1 X97.076 Y79.765 E2.42016
G1 X97.420 Y80.352 E2.44862
G1 X99.750 Y80.352 E2.54617
G1 X99.750 Y77.971 E2.64583
G1 X98.429 Y77.971 E2.70113
G1 E0.70113 F2400.00000
G92 E0
G1 X94.669 Y77.971 F7800.000
G1 E2.00000 F2400.00000
G1 X94.381 Y77.971 E2.01205 F3600.000
G1 X94.310 Y78.223 E2.02298
G1 X94.700 Y78.270 E2.03944
G1 X94.700 Y77.971 E2.05195
G1 X94.669 Y77.971 E2.05327
G1 E0.05327 F2400.00000
G92 E0
G1 X91.598 Y77.971 F7800.000
G1 E2.00000 F2400.00000
G1 X87.500 Y77.971 E2.17155 F3600.000
G1 X87.500 Y78.519 E2.19448
G1 X87.726 Y78.613 E2.20472
G1 X88.262 Y78.941 E2.23101
G1 X88.688 Y79.312 E2.25468
G1 X89.076 Y79.765 E2.27965
G1 X89.420 Y80.352 E2.30812
G1 X90.580 Y80.352 E2.35670
G1 X90.924 Y79.765 E2.38516
G1 X91.312 Y79.312 E2.41013
G1 X91.765 Y78.924 E2.43511
G1 X92.274 Y78.613 E2.46008
G1 X92.825 Y78.384 E2.48505
G1 X93.405 Y78.245 E2.51003
G1 X93.690 Y78.223 E2.52199
G1 X93.619 Y77.971 E2.53292
G1 X91.598 Y77.971 E2.61753
G1 X91.598 Y78.307 F7800.000
G1 X88.044 Y78.307 E2.76632 F3600.000
G1 X88.139 Y78.472 E2.77431
G1 X88.597 Y78.753 E2.79680
G1 X88.597 Y78.792 E2.79846
G1 X88.926 Y79.074 E2.81659
G1 X89.348 Y79.567 E2.84377
G1 X89.623 Y80.016 E2.86580
G1 X90.377 Y80.016 E2.89735
G1 X90.681 Y79.520 E2.92174
G1 X91.074 Y79.074 E2.94660
G1 X91.567 Y78.652 E2.97379
G1 X92.135 Y78.307 E3.00160
G1 X91.598 Y78.307 E3.02408
G1 E1.02408 F2400.00000
G92 E0
G1 X82.339 Y78.307 F7800.000
G1 E2.00000 F2400.00000
G1 X80.586 Y78.307 E2.07340 F3600.000
G1 X80.586 Y80.016 E2.14496
G1 X82.377 Y80.016 E2.21994
G1 X82.652 Y79.567 E2.24198
G1 X83.074 Y79.074 E2.26916
G1 X83.535 Y78.679 E2.29458
G1 X83.750 Y78.307 E2.31258
G1 X82.339 Y78.307 E2.37166
G1 X82.339 Y77.971 F7800.000
G1 X80.250 Y77.971 E2.45911 F3600.000
G1 X80.250 Y80.352 E2.55877
G1 X82.580 Y80.352 E2.65632
G1 X82.924 Y79.765 E2.68478
G1 X83.312 Y79.312 E2.70975
G1 X83.765 Y78.924 E2.73473
G1 X84.274 Y78.613 E2.75970
G1 X84.700 Y78.436 E2.77900
G1 X84.700 Y77.971 E2.79847
G1 X82.339 Y77.971 E2.89730
G1 Z1.000 F7800.000
G1 E0.89730 F2400.00000
G92 E0
G1 X79.126 Y75.126 F7800.000
G1 E2.00000 F2400.00000
G1 X100.874 Y75.126 E3.13624 F3600.000
G1 X100.874 Y104.874 E4.69044
G1 X79.126 Y104.874 E5.82668
G1 X79.126 Y75.186 E7.37774
G1 X79.450 Y75.450 F7800.000
G1 X100.550 Y75.450 E8.48011 F3600.000
G1 X100.550 Y104.550 E10.00043
G1 X79.450 Y104.550 E11.10280
G1 X79.450 Y75.510 E12.61999
G1 E10.61999 F2400.00000
G92 E0
G1 X101.326 Y105.326 F7800.000
G1 E2.00000 F2400.00000
G1 X78.674 Y105.326 E3.18343 F3600.000
G1 X78.674 Y74.674 E4.78483
G1 X101.326 Y74.674 E5.96826
G1 X101.326 Y105.266 E7.56652
G1 X101.650 Y105.650 F7800.000
G1 X78.350 Y105.650 E8.78383 F3600.000
G1 X78.350 Y74.350 E10.41909
G1 X101.650 Y74.350 E11.63640
G1 X101.650 Y105.590 E13.26853
G1 E11.26853 F2400.00000
G92 E0
G1 X101.850 Y105.850 F7800.000
G1 X101.850 Y105.850 F7800.000
G1 X88.184 Y99.113 F7800.000
G1 E2.00000 F2400.00000
G1 X87.983 Y99.440 E2.02009 F900.000
G1 X87.733 Y99.733 E2.04018
G1 X87.440 Y99.983 E2.06027
G1 X87.112 Y100.184 E2.08038
G1 X86.747 Y100.333 E2.10098
G1 X86.383 Y100.420 E2.12054
G1 X86.000 Y100.451 E2.14063
G1 X85.617 Y100.420 E2.16072
G1 X85.243 Y100.331 E2.18081
G1 X84.887 Y100.184 E2.20090
G1 X84.560 Y99.983 E2.22099
G1 X84.267 Y99.733 E2.24108
G1 X84.017 Y99.440 E2.26117
G1 X83.816 Y99.113 E2.28126
G1 X83.669 Y98.757 E2.30135
G1 X83.580 Y98.383 E2.32144
G1 X83.549 Y98.000 E2.34153
G1 X83.580 Y97.617 E2.36163
G1 X83.669 Y97.243 E2.38172
G1 X83.816 Y96.887 E2.40181
G1 X84.012 Y96.568 E2.42136
G1 X84.267 Y96.267 E2.44196
G1 X84.560 Y96.017 E2.46207
G1 X84.887 Y95.816 E2.48216
G1 X85.243 Y95.669 E2.50225
G1 X85.617 Y95.580 E2.52234
G1 X85.989 Y95.550 E2.54188 F900.000
G1 X86.383 Y95.579 E2.56250
G1 X86.757 Y95.669 E2.58261
G1 X87.113 Y95.816 E2.60270
G1 X87.440 Y96.017 E2.62279
G1 X87.733 Y96.267 E2.64288
G1 X87.983 Y96.560 E2.66297
G1 X88.184 Y96.887 E2.68306
G1 X88.331 Y97.243 E2.70315
G1 X88.420 Y97.617 E2.72324
G1 X88.451 Y98.000 E2.74333
G1 X88.420 Y98.384 E2.76345
G1 X88.327 Y98.767 E2.78404
G1 X88.206 Y99.057 E2.80047
G1 X88.650 Y99.398 F7800.000
G1 X88.427 Y99.763 E2.82281 F900.000
G1 X88.121 Y100.121 E2.84739
G1 X87.763 Y100.427 E2.87199
G1 X87.362 Y100.672 E2.89657
G1 X86.927 Y100.853 E2.92116
G1 X86.469 Y100.962 E2.94575
G1 X86.000 Y100.999 E2.97034
G1 X85.531 Y100.962 E2.99493
G1 X85.073 Y100.853 E3.01952
G1 X84.638 Y100.672 E3.04411
G1 X84.237 Y100.427 E3.06870
G1 X83.879 Y100.121 E3.09329
G1 X83.573 Y99.763 E3.11788
G1 X83.328 Y99.362 E3.14247
G1 X83.147 Y98.927 E3.16706
G1 X83.038 Y98.469 E3.19165
G1 X83.001 Y98.000 E3.21624
G1 X83.038 Y97.531 E3.24083
G1 X83.147 Y97.073 E3.26542
G1 X83.328 Y96.638 E3.29001
G1 X83.573 Y96.237 E3.31459
G1 X83.870 Y95.890 E3.33846
G1 X84.237 Y95.573 E3.36379
G1 X84.638 Y95.328 E3.38835
G1 X85.073 Y95.147 E3.41294
G1 X85.531 Y95.038 E3.43753
G1 X86.000 Y95.001 E3.46212
G1 X86.455 Y95.036 E3.48595
G1 X86.927 Y95.148 E3.51132 F900.000
G1 X87.362 Y95.328 E3.53588
G1 X87.763 Y95.573 E3.56047
G1 X88.121 Y95.879 E3.58506
G1 X88.427 Y96.237 E3.60965
G1 X88.672 Y96.638 E3.63424
G1 X88.853 Y97.073 E3.65883
G1 X88.962 Y97.531 E3.68342
G1 X88.999 Y98.000 E3.70801
G1 X88.962 Y98.469 E3.73260
G1 X88.853 Y98.927 E3.75719
G1 X88.679 Y99.346 E3.78089
G1 E1.78089 F2400.00000
G92 E0
G1 X101.850 Y105.850 F7800.000
G1 X101.850 Y105.850 F7800.000
G1 X91.650 Y98.678 F7800.000
G1 E2.00000 F2400.00000
G1 X91.580 Y98.383 E2.01584 F900.000
G1 X91.549 Y98.000 E2.03593
G1 X91.580 Y97.617 E2.05602
G1 X91.669 Y97.243 E2.07611
G1 X91.816 Y96.887 E2.09620
G1 X92.017 Y96.560 E2.11629
G1 X92.267 Y96.267 E2.13638
G1 X92.560 Y96.017 E2.15647
G1 X92.887 Y95.816 E2.17656
G1 X93.243 Y95.669 E2.19665
G1 X93.617 Y95.580 E2.21674
G1 X93.989 Y95.550 E2.23628 F900.000
G1 X94.383 Y95.579 E2.25689
G1 X94.757 Y95.669 E2.27701
G1 X95.113 Y95.816 E2.29710
G1 X95.440 Y96.017 E2.31719
G1 X95.733 Y96.267 E2.33728
G1 X95.983 Y96.560 E2.35737
G1 X96.184 Y96.887 E2.37746
G1 X96.331 Y97.243 E2.39755
G1 X96.420 Y97.617 E2.41764
G1 X96.451 Y98.000 E2.43773
G1 X96.420 Y98.383 E2.45782
G1 X96.331 Y98.757 E2.47791
G1 X96.184 Y99.113 E2.49800
G1 X95.983 Y99.440 E2.51810
G1 X95.733 Y99.733 E2.53819
G1 X95.440 Y99.983 E2.55830
G1 X95.103 Y100.187 E2.57889
G1 X94.757 Y100.331 E2.59845
G1 X94.383 Y100.420 E2.61854
G1 X94.000 Y100.451 E2.63863
G1 X93.617 Y100.420 E2.65872
G1 X93.243 Y100.331 E2.67881
G1 X92.887 Y100.184 E2.69890
G1 X92.560 Y99.983 E2.71900
G1 X92.267 Y99.733 E2.73911
G1 X92.012 Y99.432 E2.75970
G1 X91.816 Y99.113 E2.77926
G1 X91.664 Y98.736 E2.80046
G1 X91.118 Y98.806 F7800.000
G1 X91.038 Y98.469 E2.81854 F900.000
G1 X91.001 Y98.000 E2.84313
G1 X91.038 Y97.531 E2.86772
G1 X91.147 Y97.073 E2.89231
G1 X91.328 Y96.638 E2.91690
G1 X91.573 Y96.237 E2.94149
G1 X91.870 Y95.890 E2.96535
G1 X92.237 Y95.573 E2.99068
G1 X92.638 Y95.328 E3.01525
G1 X93.073 Y95.147 E3.03984
G1 X93.531 Y95.038 E3.06443
G1 X94.000 Y95.001 E3.08902
G1 X94.455 Y95.036 E3.11285
G1 X94.927 Y95.148 E3.13821 F900.000
G1 X95.362 Y95.328 E3.16278
G1 X95.763 Y95.573 E3.18737
G1 X96.110 Y95.870 E3.21121
G1 X96.427 Y96.237 E3.23656
G1 X96.672 Y96.638 E3.26113
G1 X96.853 Y97.073 E3.28572
G1 X96.962 Y97.531 E3.31031
G1 X96.999 Y98.000 E3.33490
G1 X96.962 Y98.469 E3.35948
G1 X96.853 Y98.927 E3.38407
G1 X96.672 Y99.362 E3.40866
G1 X96.427 Y99.763 E3.43325
G1 X96.121 Y100.121 E3.45784
G1 X95.763 Y100.427 E3.48243
G1 X95.362 Y100.672 E3.50702
G1 X94.927 Y100.853 E3.53161
G1 X94.469 Y100.962 E3.55620
G1 X94.000 Y100.999 E3.58079
G1 X93.531 Y100.962 E3.60538
G1 X93.073 Y100.853 E3.62997
G1 X92.638 Y100.672 E3.65456
G1 X92.237 Y100.427 E3.67915
G1 X91.879 Y100.121 E3.70374
G1 X91.573 Y99.763 E3.72833
G1 X91.328 Y99.362 E3.75292
G1 X91.132 Y98.864 E3.78084
G1 E1.78084 F2400.00000
G92 E0
G1 X78.150 Y105.850 F7800.000
G1 X78.150 Y105.850 F7800.000
G1 X87.113 Y92.184 F7800.000
G1 E2.00000 F2400.00000
G1 X86.757 Y92.331 E2.02009 F900.000
G1 X86.383 Y92.420 E2.04018
G1 X86.000 Y92.451 E2.06027
G1 X85.616 Y92.420 E2.08039
G1 X85.231 Y92.326 E2.10108
G1 X84.887 Y92.184 E2.12054
G1 X84.560 Y91.983 E2.14063
G1 X84.267 Y91.733 E2.16072
G1 X84.017 Y91.440 E2.18081
G1 X83.816 Y91.113 E2.20090
G1 X83.669 Y90.757 E2.22099
G1 X83.580 Y90.383 E2.24108
G1 X83.549 Y90.000 E2.26117
