; generated by Slic3r 1.2.7-dev on 2015-05-16 at 19:19:13

; external perimeters extrusion width = 0.30mm
; perimeters extrusion width = 0.31mm
; infill extrusion width = 0.31mm
; solid infill extrusion width = 0.31mm
; top infill extrusion width = 0.31mm

M107
M104 S215 ; set temperature
G28 ; home all axes
G1 Z5 F5000 ; lift nozzle

M109 S215 ; wait for temperature to be reached
G21 ; set units to millimeters
G90 ; use absolute coordinates
M82 ; use absolute distances for extrusion
G92 E0
G1 Z0.600 F7800.000
G1 E-2.00000 F2400.00000
G92 E0
G1 X94.705 Y54.896 F7800.000
G1 E2.00000 F2400.00000
G1 X95.848 Y52.925 E2.15217 F1210.387
G1 X97.597 Y51.466 E2.30434
G1 X99.675 Y50.708 E2.45208
G1 X100.087 Y50.633 E2.48009
G1 X101.256 Y50.528 E2.55851
G1 X112.044 Y50.528 E3.27917
G1 X113.213 Y50.633 E3.35759
G1 X113.625 Y50.708 E3.38560 F1210.387
G1 X115.761 Y51.500 E3.53777
G1 X117.496 Y52.977 E3.68994
G1 X118.618 Y54.959 E3.84211
G1 X118.992 Y57.138 E3.98985
G1 X118.992 Y62.901 E4.37482
G1 X118.595 Y65.144 E4.52699
G1 X117.452 Y67.114 E4.67916
G1 X115.703 Y68.573 E4.83133
G1 X112.456 Y69.437 E5.05576
G1 X100.844 Y69.437 E5.83154
G1 X98.601 Y69.040 E5.98371
G1 X96.630 Y67.897 E6.13588
G1 X95.172 Y66.148 E6.28805
G1 X94.308 Y62.901 E6.51248
G1 X94.308 Y57.138 E6.89745
G1 X94.697 Y54.940 E7.04661
G1 E5.04661 F2400.00000
G92 E0
G1 X101.050 Y57.101 F7800.000
G1 E2.00000 F2400.00000
G1 X101.050 Y62.322 E2.34881 F1210.387
G1 X100.873 Y62.723 E2.37810
G1 E0.37810 F2400.00000
G92 E0
G1 X101.256 Y62.413 F7800.000
G1 X112.044 Y62.413 F7800.000
G1 X112.403 Y62.731 F7800.000
G1 E2.00000 F2400.00000
G1 X112.250 Y62.322 E2.02915 F1210.387
G1 X112.250 Y57.101 E2.37796
G1 E0.37796 F2400.00000
G92 E0
G1 X112.044 Y57.063 F7800.000
G1 X110.175 Y61.032 F7800.000
G1 X103.341 Y60.920 F7800.000
G1 E2.00000 F2400.00000
G1 X103.341 Y57.063 E2.25762 F1210.387
G1 E0.25762 F2400.00000
G92 E0
G1 X103.556 Y60.807 F7800.000
G1 X109.959 Y60.920 F7800.000
G1 E2.00000 F2400.00000
G1 X109.959 Y57.063 E2.25762 F1210.387
G1 E0.25762 F2400.00000
G92 E0
G1 X108.850 Y57.063 F7800.000
G1 X107.330 Y62.537 F7800.000
G1 X105.550 Y60.210 F7800.000
G1 E2.00000 F2400.00000
G1 X105.550 Y57.063 E2.21023 F1210.387
G1 E0.21023 F2400.00000
G92 E0
G1 X105.756 Y60.182 F7800.000
G1 X107.750 Y60.210 F7800.000
G1 E2.00000 F2400.00000
G1 X107.750 Y57.063 E2.21023 F1210.387
M104 S210 ; set temperature
G1 Z0.900 F7800.000
G1 E0.21023 F2400.00000
G92 E0
G1 X114.705 Y64.495 F7800.000
G1 E2.00000 F2400.00000
G1 X114.594 Y64.465 E2.00337 F900.000
G1 X114.594 Y59.529 E2.14843
G1 X114.717 Y59.506 E2.15210
G1 X114.872 Y59.910 E2.16482
G1 X115.056 Y61.843 E2.22189
G1 X115.056 Y63.905 E2.28248
G1 X114.728 Y64.456 E2.30133
G1 X114.379 Y65.357 F7800.000
G1 X114.344 Y65.241 E2.30489 F900.000
G1 X114.344 Y58.085 E2.51520
G1 X114.495 Y58.225 E2.52124
G1 X115.118 Y59.852 E2.57246
G1 X115.306 Y61.831 E2.63088
G1 X115.306 Y63.974 E2.69385
G1 X114.484 Y65.357 E2.74114
G1 X114.424 Y65.357 E2.74289
G1 X114.173 Y65.608 F7800.000
G1 X114.093 Y65.279 E2.75282 F900.000
G1 X114.093 Y57.513 E2.98106
G1 X114.715 Y58.099 E3.00617
G1 X115.365 Y59.794 E3.05954
G1 X115.557 Y61.820 E3.11932
G1 X115.557 Y64.043 E3.18466
G1 X114.626 Y65.608 E3.23816
G1 X114.218 Y65.608 E3.25017
G1 X113.973 Y65.851 F7800.000
G1 X113.850 Y65.316 E3.26631 F900.000
G1 X113.850 Y56.958 E3.51194
G1 X114.881 Y57.910 E3.55319
G1 X114.932 Y57.987 E3.55590
G1 X115.604 Y59.738 E3.61104
G1 X115.800 Y61.808 E3.67213
G1 X115.800 Y64.110 E3.73977
G1 X114.765 Y65.851 E3.79930
G1 X114.018 Y65.851 E3.82124
G1 X114.727 Y64.200 F7800.000
G1 X114.825 Y63.842 E3.82556 F1200.000
G1 X114.825 Y61.854 E3.84864
G1 X114.727 Y59.904 E3.87132
G1 X114.633 Y59.394 F7800.000
G1 X114.477 Y58.549 E3.88130 F1200.000
G1 X114.810 Y61.531 F7800.000
G1 X114.825 Y61.854 E3.89777 F1200.000
G1 X114.825 Y63.842 E3.99894
G1 X114.789 Y63.972 E4.00583
G1 E2.00583 F2400.00000
G92 E0
G1 X113.700 Y65.338 F7800.000
G1 X112.869 Y63.501 F7800.000
G1 X112.476 Y62.275 F7800.000
G1 E2.00000 F2400.00000
G1 X112.024 Y61.865 E2.01907 F900.000
G1 X112.024 Y56.908 E2.17402
G1 X112.024 Y56.860 E2.17543 F900.000
G1 X112.476 Y56.942 E2.18891
G1 X112.476 Y56.990 E2.19032
G1 X112.476 Y62.230 E2.35414 F900.000
G1 X112.606 Y62.853 F7800.000
G1 X112.368 Y62.506 E2.36651 F900.000
G1 X111.894 Y62.075 E2.38535
G1 X111.781 Y61.972 E2.38982 F900.000
G1 X111.781 Y56.568 E2.54863
G1 X112.719 Y56.739 E2.57664
G1 X112.719 Y62.836 E2.75581
G1 X112.642 Y62.859 E2.75816
G1 X112.250 Y61.901 F7800.000
G1 X112.250 Y57.028 E2.81475 F1200.000
G1 X112.250 Y57.028 F7800.000
G1 X112.250 Y61.901 E3.06278 F1200.000
G1 E1.06278 F2400.00000
G92 E0
G1 X111.631 Y62.038 F7800.000
G1 X110.625 Y61.295 F7800.000
G1 X110.232 Y60.599 F7800.000
G1 E2.00000 F2400.00000
G1 X109.724 Y60.367 E2.01744 F900.000
G1 X109.724 Y56.913 E2.12539
G1 X109.724 Y56.782 E2.12927 F900.000
G1 X110.232 Y56.782 E2.14418
G1 X110.232 Y56.913 E2.14806
G1 X110.232 Y60.554 E2.26184 F900.000
G1 X110.475 Y61.033 F7800.000
G1 X110.325 Y60.945 E2.26695 F900.000
G1 X110.045 Y60.780 E2.27650 F900.000
G1 X109.594 Y60.575 E2.29107
G1 X109.481 Y60.523 E2.29470 F900.000
G1 X109.481 Y56.538 E2.41181
G1 X110.475 Y56.538 E2.44101
G1 X110.475 Y60.988 E2.57177
G1 X109.978 Y60.345 F7800.000
G1 X109.978 Y56.907 E2.61170 F1200.000
G1 X109.978 Y60.345 E2.78671 F1200.000
G1 E0.78671 F2400.00000
G92 E0
G1 X109.331 Y60.620 F7800.000
G1 X108.369 Y60.314 F7800.000
G1 X107.976 Y59.842 F7800.000
G1 E2.00000 F2400.00000
G1 X107.524 Y59.787 E2.01421 F900.000
G1 X107.524 Y56.913 E2.10403
G1 X107.524 Y56.782 E2.10790 F900.000
G1 X107.976 Y56.782 E2.12117
G1 X107.976 Y56.913 E2.12504
G1 X107.976 Y59.797 E2.21518 F900.000
G1 X108.106 Y60.113 F7800.000
G1 X107.796 Y60.057 E2.22444 F900.000
G1 X107.394 Y60.019 E2.23632
G1 X107.281 Y60.008 E2.23964 F900.000
G1 X107.281 Y56.538 E2.34161
G1 X108.219 Y56.538 E2.36916
G1 X108.219 Y60.134 E2.47481
G1 X108.151 Y60.121 E2.47685
G1 X107.750 Y59.682 F7800.000
G1 X107.750 Y56.907 E2.50908 F1200.000
G1 X107.750 Y59.682 E2.65035 F1200.000
G1 X105.776 Y59.787 F7800.000
G1 X105.324 Y59.842 E2.66456 F900.000
G1 X105.324 Y56.913 E2.75611
G1 X105.324 Y56.782 E2.75998 F900.000
G1 X105.776 Y56.782 E2.77324
G1 X105.776 Y56.913 E2.77712
G1 X105.776 Y59.742 E2.86553 F900.000
G1 X105.906 Y60.019 F7800.000
G1 X105.504 Y60.057 E2.87741 F900.000
G1 X105.194 Y60.113 E2.88667
G1 X105.081 Y60.134 E2.89003 F900.000
G1 X105.081 Y56.538 E2.99569
G1 X106.019 Y56.538 E3.02324
G1 X106.019 Y60.008 E3.12520
G1 X105.951 Y60.015 E3.12720
G1 X105.550 Y59.682 F7800.000
G1 X105.550 Y56.907 E3.15943 F1200.000
G1 X105.550 Y59.682 E3.30070 F1200.000
G1 E1.30070 F2400.00000
G92 E0
G1 X104.931 Y60.314 F7800.000
G1 X103.969 Y60.620 F7800.000
G1 X103.576 Y60.367 F7800.000
G1 E2.00000 F2400.00000
G1 X103.068 Y60.599 E2.01744 F900.000
G1 X103.068 Y56.913 E2.13263
G1 X103.068 Y56.782 E2.13651 F900.000
G1 X103.576 Y56.782 E2.15142
G1 X103.576 Y56.913 E2.15530
G1 X103.576 Y60.322 E2.26184 F900.000
G1 X103.706 Y60.575 F7800.000
G1 X103.255 Y60.780 E2.27641 F900.000
G1 X102.975 Y60.945 E2.28596
G1 X102.825 Y61.033 E2.29107 F900.000
G1 X102.825 Y56.538 E2.42315
G1 X103.819 Y56.538 E2.45235
G1 X103.819 Y60.523 E2.56946
G1 X103.747 Y60.556 E2.57177
G1 X103.322 Y60.345 F7800.000
G1 X103.322 Y56.907 E2.61170 F1200.000
G1 X103.322 Y60.345 E2.78671 F1200.000
G1 E0.78671 F2400.00000
G92 E0
G1 X102.675 Y61.295 F7800.000
G1 X101.669 Y62.038 F7800.000
G1 X100.824 Y62.275 F7800.000
G1 E2.00000 F2400.00000
G1 X100.824 Y56.990 E2.16522 F900.000
G1 X100.824 Y56.942 E2.16663 F900.000
G1 X101.276 Y56.860 E2.18011
G1 X101.276 Y56.908 E2.18152
G1 X101.276 Y61.865 E2.33647 F900.000
G1 X100.858 Y62.245 E2.35414
G1 X100.581 Y62.836 F7800.000
G1 X100.581 Y56.739 E2.53331 F900.000
G1 X101.519 Y56.568 E2.56132
G1 X101.519 Y61.972 E2.72013
G1 X101.406 Y62.075 E2.72460
G1 X100.932 Y62.506 E2.74344 F900.000
G1 X100.694 Y62.853 E2.75581
G1 X100.684 Y62.868 E2.75632 F900.000
G1 X100.624 Y62.849 E2.75816
G1 X101.050 Y61.901 F7800.000
G1 X101.050 Y57.028 E2.81475 F1200.000
G1 X101.050 Y57.028 F7800.000
G1 X101.050 Y61.901 E3.06278 F1200.000
G1 E1.06278 F2400.00000
G92 E0
G1 X101.046 Y62.605 F7800.000
G1 X99.450 Y67.001 F7800.000
G1 X96.350 Y64.151 F7800.000
G1 X97.351 Y61.783 F7800.000
G1 X98.706 Y59.528 F7800.000
G1 E2.00000 F2400.00000
G1 X98.706 Y64.465 E2.14509 F900.000
G1 X98.595 Y64.495 E2.14846
G1 X98.244 Y63.905 E2.16863
G1 X98.244 Y61.843 E2.22922
G1 X98.429 Y59.906 E2.28641
G1 X98.583 Y59.505 E2.29904
G1 X98.661 Y59.519 E2.30139
G1 X98.956 Y58.085 F7800.000
G1 X98.956 Y65.241 E2.51170 F900.000
G1 X98.921 Y65.357 E2.51526
G1 X98.816 Y65.357 E2.51833
G1 X97.994 Y63.974 E2.56562
G1 X97.994 Y61.832 E2.62859
G1 X98.183 Y59.848 E2.68713
G1 X98.805 Y58.225 E2.73823
G1 X98.923 Y58.116 E2.74296
G1 X99.207 Y57.512 F7800.000
G1 X99.207 Y65.279 E2.97122 F900.000
G1 X99.127 Y65.608 E2.98115
G1 X98.674 Y65.608 E2.99449
G1 X97.743 Y64.043 E3.04799
G1 X97.743 Y61.820 E3.11333
G1 X97.936 Y59.791 E3.17323
G1 X98.585 Y58.099 E3.22648
G1 X99.174 Y57.543 E3.25028
G1 X99.450 Y56.956 F7800.000
G1 X99.450 Y65.316 E3.49595 F900.000
G1 X99.327 Y65.851 E3.51208
G1 X98.535 Y65.851 E3.53535
G1 X97.500 Y64.110 E3.59488
G1 X97.500 Y61.808 E3.66252
G1 X97.697 Y59.735 E3.72373
G1 X98.368 Y57.987 E3.77875
G1 X98.419 Y57.910 E3.78146
G1 X99.417 Y56.987 E3.82141
G1 X98.823 Y58.549 F7800.000
G1 X98.667 Y59.393 E3.83138 F1200.000
G1 X98.573 Y59.903 F7800.000
G1 X98.475 Y61.854 E3.85408 F1200.000
G1 X98.475 Y63.842 E3.87716
G1 X98.573 Y64.200 E3.88147
G1 X98.511 Y63.972 F7800.000
G1 X98.475 Y63.842 E3.88836 F1200.000
G1 X98.475 Y61.854 E3.98953
G1 X98.490 Y61.532 E4.00596
G1 Z1.200 F7800.000
G1 E2.00596 F2400.00000
G92 E0
G1 X91.056 Y75.635 F7800.000
G1 E2.00000 F2400.00000
G1 X91.056 Y79.312 E2.10805 F3600.000
G1 X90.956 Y84.854 E2.27096
G1 X90.561 Y89.006 E2.39354
G1 X89.967 Y93.554 E2.52832
G1 X87.850 Y93.704 E2.59070
G1 X88.044 Y92.578 E2.62428
G1 X88.044 Y75.635 E3.12219
G1 X91.011 Y75.635 E3.20936
G1 X91.306 Y75.384 F7800.000
G1 X91.306 Y79.314 E3.32485 F3600.000
G1 X91.207 Y84.868 E3.48810
G1 X90.810 Y89.034 E3.61110
G1 X90.217 Y93.581 E3.74585
G1 X90.174 Y93.796 E3.75228
G1 X87.549 Y93.976 E3.82961
G1 X87.794 Y92.556 E3.87195
G1 X87.794 Y75.384 E4.37660
G1 X91.261 Y75.384 E4.47850
G1 X77.256 Y75.635 F7800.000
G1 X77.256 Y92.578 E4.97641 F3600.000
G1 X77.450 Y93.704 E5.00999
G1 X75.333 Y93.554 E5.07237
G1 X74.739 Y89.006 E5.20715
G1 X74.344 Y84.854 E5.32973
G1 X74.244 Y79.312 E5.49264
G1 X74.244 Y75.635 E5.60069
G1 X77.211 Y75.635 E5.68786
G1 X77.506 Y75.384 F7800.000
G1 X77.506 Y92.556 E6.19251 F3600.000
G1 X77.751 Y93.976 E6.23486
G1 X75.126 Y93.796 E6.31218
G1 X75.083 Y93.581 E6.31861
G1 X74.490 Y89.034 E6.45337
G1 X74.093 Y84.868 E6.57636
G1 X73.994 Y79.314 E6.73961
G1 X73.994 Y75.384 E6.85510
G1 X77.461 Y75.384 E6.95700
G1 X77.757 Y75.608 F7800.000
G1 X77.757 Y92.535 E7.45444 F3600.000
G1 X78.052 Y94.249 E7.50555
G1 X74.919 Y94.041 E7.59783
G1 X74.836 Y93.622 E7.61038
G1 X74.241 Y89.063 E7.74552
G1 X73.843 Y84.882 E7.86892
G1 X73.743 Y79.316 E8.03252
G1 X73.743 Y75.134 E8.15544
G1 X91.557 Y75.134 E8.67895
G1 X91.557 Y79.316 E8.80186
G1 X91.457 Y84.882 E8.96547
G1 X91.059 Y89.063 E9.08887
G1 X90.464 Y93.622 E9.22400
G1 X90.381 Y94.041 E9.23656
G1 X87.248 Y94.249 E9.32884
G1 X87.543 Y92.535 E9.37995
G1 X87.543 Y75.608 E9.87739
G1 X77.802 Y75.608 E10.16366
G1 X78.000 Y75.851 F7800.000
G1 X78.000 Y92.514 E10.65334 F3600.000
G1 X78.345 Y94.513 E10.71296
G1 X75.214 Y94.292 E10.80518
G1 X74.719 Y94.279 E10.81975
G1 X74.596 Y93.662 E10.83825
G1 X73.999 Y89.090 E10.97375
G1 X73.600 Y84.896 E11.09755
G1 X73.500 Y79.318 E11.26149
G1 X73.500 Y74.890 E11.39162
G1 X91.800 Y74.890 E11.92942
G1 X91.800 Y79.318 E12.05954
G1 X91.700 Y84.896 E12.22348
G1 X91.301 Y89.090 E12.34729
G1 X90.704 Y93.662 E12.48278
G1 X90.581 Y94.279 E12.50128
G1 X90.086 Y94.292 E12.51585
G1 X86.955 Y94.513 E12.60808
G1 X87.300 Y92.514 E12.66769
G1 X87.300 Y75.851 E13.15737
G1 X78.045 Y75.851 E13.42936
G1 X77.632 Y75.371 F7800.000
G1 X87.668 Y75.371 E13.54593 F1200.000
G1 X77.632 Y75.371 E14.05683 F1200.000
G1 X77.147 Y75.932 F7800.000
G1 X76.958 Y75.744 E14.06492 F3600.000
G1 X76.456 Y75.744 E14.08013
G1 X77.147 Y76.434 E14.10973
G1 X77.147 Y76.936 E14.12495
G1 X75.955 Y75.744 E14.17607
G1 X75.453 Y75.744 E14.19128
G1 X77.147 Y77.437 E14.26392
G1 X77.147 Y77.939 E14.27913
G1 X74.951 Y75.744 E14.37328
G1 X74.450 Y75.744 E14.38850
G1 X77.147 Y78.441 E14.50417
G1 X77.147 Y78.943 E14.51938
G1 X74.353 Y76.149 E14.63918
G1 X74.353 Y76.651 E14.65439
G1 X77.147 Y79.444 E14.77418
G1 X77.147 Y79.946 E14.78940
G1 X74.353 Y77.153 E14.90919
G1 X74.353 Y77.655 E14.92440
G1 X77.147 Y80.448 E15.04420
G1 X77.147 Y80.949 E15.05941
G1 X74.353 Y78.156 E15.17920
G1 X74.353 Y78.658 E15.19442
G1 X77.147 Y81.451 E15.31421
G1 X77.147 Y81.953 E15.32942
G1 X74.353 Y79.160 E15.44921
G1 X74.361 Y79.669 E15.46467
G1 X77.147 Y82.454 E15.58413
G1 X77.147 Y82.956 E15.59934
G1 X74.370 Y80.180 E15.71841
G1 X74.380 Y80.691 E15.73390
G1 X77.147 Y83.458 E15.85258
G1 X77.147 Y83.960 E15.86779
G1 X74.389 Y81.202 E15.98607
G1 X74.398 Y81.713 E16.00157
G1 X77.147 Y84.461 E16.11946
G1 X77.147 Y84.963 E16.13467
G1 X74.407 Y82.223 E16.25217
G1 X74.416 Y82.734 E16.26766
G1 X77.147 Y85.465 E16.38477
G1 X77.147 Y85.966 E16.39998
G1 X74.425 Y83.245 E16.51669
G1 X74.434 Y83.756 E16.53219
G1 X77.147 Y86.468 E16.64851
G1 X77.147 Y86.970 E16.66372
G1 X74.444 Y84.267 E16.77965
G1 X74.453 Y84.778 E16.79517
G1 X77.147 Y87.471 E16.91067
G1 X77.147 Y87.973 E16.92589
G1 X74.506 Y85.333 E17.03913
G1 X74.559 Y85.887 E17.05602
G1 X77.147 Y88.475 E17.16700
G1 X77.147 Y88.977 E17.18222
G1 X74.612 Y86.442 E17.29093
G1 X74.665 Y86.996 E17.30782
G1 X77.147 Y89.478 E17.41427
G1 X77.147 Y89.980 E17.42949
G1 X74.717 Y87.551 E17.53368
G1 X74.770 Y88.105 E17.55057
G1 X77.147 Y90.482 E17.65249
G1 X77.147 Y90.983 E17.66771
G1 X74.823 Y88.660 E17.76737
G1 X74.888 Y89.226 E17.78467
G1 X77.147 Y91.485 E17.88154
G1 X77.147 Y91.987 E17.89675
G1 X74.963 Y89.803 E17.99039
G1 X75.039 Y90.380 E18.00804
G1 X77.147 Y92.488 E18.09844
G1 X77.214 Y93.057 E18.11582
G1 X75.114 Y90.958 E18.20588
G1 X75.189 Y91.535 E18.22353
G1 X77.228 Y93.573 E18.31096
G1 X76.688 Y93.535 E18.32737
G1 X75.265 Y92.112 E18.38842
G1 X75.340 Y92.689 E18.40607
G1 X76.148 Y93.497 E18.44074
G1 X75.608 Y93.459 E18.45715
G1 X75.415 Y93.266 E18.46544
G1 E16.46544 F2400.00000
G92 E0
G1 X75.426 Y93.455 F7800.000
G1 X87.977 Y93.589 F7800.000
G1 X88.188 Y93.575 F7800.000
G1 E2.00000 F2400.00000
G1 X88.003 Y93.391 E2.00776 F3600.000
G1 X88.076 Y92.966 E2.02058
G1 X88.652 Y93.543 E2.04482
G1 X89.117 Y93.510 E2.05869
G1 X88.149 Y92.542 E2.09941
G1 X88.153 Y92.048 E2.11410
G1 X89.582 Y93.477 E2.17422
G1 X89.900 Y93.297 E2.18508
G1 X88.153 Y91.551 E2.25857
G1 X88.153 Y91.053 E2.27338
G1 X89.957 Y92.857 E2.34929
G1 X90.015 Y92.417 E2.36250
G1 X88.153 Y90.556 E2.44083
G1 X88.153 Y90.058 E2.45563
G1 X90.072 Y91.977 E2.53638
G1 X90.130 Y91.537 E2.54958
G1 X88.153 Y89.560 E2.63275
G1 X88.153 Y89.063 E2.64755
G1 X90.187 Y91.097 E2.73313
G1 X90.245 Y90.656 E2.74634
G1 X88.153 Y88.565 E2.83434
G1 X88.153 Y88.068 E2.84915
G1 X90.302 Y90.216 E2.93956
G1 X90.360 Y89.776 E2.95277
G1 X88.153 Y87.570 E3.04561
G1 X88.153 Y87.072 E3.06041
G1 X90.417 Y89.336 E3.15566
G1 X90.469 Y88.891 E3.16901
G1 X88.153 Y86.575 E3.26646
G1 X88.153 Y86.077 E3.28126
G1 X90.513 Y88.436 E3.38053
G1 X90.556 Y87.982 E3.39411
G1 X88.153 Y85.579 E3.49520
G1 X88.153 Y85.082 E3.51000
G1 X90.599 Y87.527 E3.61291
G1 X90.642 Y87.073 E3.62649
G1 X88.153 Y84.584 E3.73122
G1 X88.153 Y84.087 E3.74602
G1 X90.686 Y86.619 E3.85257
G1 X90.729 Y86.164 E3.86615
G1 X88.153 Y83.589 E3.97451
G1 X88.153 Y83.091 E3.98932
G1 X90.772 Y85.710 E4.09951
G1 X90.815 Y85.256 E4.11309
G1 X88.153 Y82.594 E4.22509
G1 X88.153 Y82.096 E4.23990
G1 X90.850 Y84.792 E4.35335
G1 X90.858 Y84.304 E4.36790
G1 X88.153 Y81.599 E4.48172
G1 X88.153 Y81.101 E4.49653
G1 X90.867 Y83.815 E4.61072
G1 X90.876 Y83.326 E4.62527
G1 X88.153 Y80.603 E4.73982
